; generated by slicer at 2016-05-14 11:13:47
G1 X0 Y0 Z0
G1 X5.0001 Y0 E0 F1500
G1 Y2.6 E0
G1 X5.0001 Y177.398 E4.20008 F1500
G1 Y182.598 E4.20008
G1 X5.0001 Y357.403 E12.3002 F1500
G1 Y359.804 E12.3002
G1 X4.9001 Y0 E16.2003 F1500
G1 Y9.2 E16.2003
G1 X4.9001 Y170.799 E30.0186 F1500
G1 Y189.198 E30.0186
G1 X4.9001 Y350.803 E57.3612 F1500
G1 Y359.804 E57.3612
G1 X4.8001 Y0 E70.8856 F1500
G1 Y12.8 E70.8856
G1 X4.8001 Y167.199 E89.606 F1500
G1 Y192.798 E89.606
G1 X4.8001 Y347.203 E126.759 F1500
G1 Y359.804 E126.759
G1 X4.7001 Y0 E145.191 F1500
G1 Y16 E145.191
G1 X4.7001 Y163.999 E168.034 F1500
G1 Y195.998 E168.034
G1 X4.7001 Y344.003 E213.436 F1500
G1 Y359.804 E213.436
G1 X4.6001 Y0 E235.996 F1500
G1 Y18.8 E235.996
G1 X4.6001 Y161.199 E262.217 F1500
G1 Y198.798 E262.217
G1 X4.6001 Y341.202 E314.384 F1500
G1 Y359.804 E314.384
G1 X4.5001 Y0 E340.329 F1500
G1 Y21.4 E340.329
G1 X4.5001 Y158.599 E369.49 F1500
G1 Y201.398 E369.49
G1 X4.5001 Y338.602 E427.541 F1500
G1 Y359.804 E427.541
G1 X4.4001 Y0 E456.432 F1500
G1 Y24 E456.432
G1 X4.4001 Y155.999 E488.376 F1500
G1 Y203.998 E488.376
G1 X4.4001 Y336.002 E552 F1500
G1 Y359.804 E552
G1 X4.3001 Y0 E583.681 F1500
G1 Y26.6 E583.681
G1 X4.3001 Y153.399 E618.253 F1500
G1 Y206.598 E618.253
G1 X4.3001 Y333.402 E687.147 F1500
G1 Y359.804 E687.147
G1 X4.2001 Y0 E721.466 F1500
G1 Y29.2 E721.466
G1 X4.2001 Y150.799 E758.513 F1500
G1 Y209.198 E758.513
G1 X4.2001 Y330.802 E832.357 F1500
G1 Y359.804 E832.357
G1 X4.1001 Y0 E869.153 F1500
G1 Y31.8 E869.153
G1 X4.1001 Y148.199 E908.516 F1500
G1 Y211.798 E908.516
G1 X4.1001 Y328.202 E986.997 F1500
G1 Y359.804 E986.997
G1 X4.0001 Y0 E1026.11 F1500
G1 Y34.4001 E1026.11
G1 X4.0001 Y145.599 E1067.64 F1500
G1 Y214.398 E1067.64
G1 X4.0001 Y325.601 E1150.44 F1500
G1 Y359.804 E1150.44
G1 X3.9001 Y0 E1191.72 F1500
G1 Y37.2001 E1191.72
G1 X3.9001 Y142.799 E1235.48 F1500
G1 Y217.198 E1235.48
G1 X3.9001 Y322.801 E1322.74 F1500
G1 Y359.804 E1322.74
G1 X3.8001 Y0 E1366.25 F1500
G1 Y40.2001 E1366.25
G1 X3.8001 Y139.799 E1412.32 F1500
G1 Y220.198 E1412.32
G1 X3.8001 Y319.801 E1504.24 F1500
G1 Y359.804 E1504.24
G1 X3.7001 Y0 E1550.08 F1500
G1 Y43.2001 E1550.08
G1 X3.7001 Y136.799 E1598.27 F1500
G1 Y223.198 E1598.27
G1 X3.7001 Y316.801 E1694.43 F1500
G1 Y359.804 E1694.43
G1 X3.6001 Y0 E1742.39 F1500
G1 Y46.6001 E1742.39
G1 X3.6001 Y133.399 E1792.95 F1500
G1 Y226.598 E1792.95
G1 X3.6001 Y313.401 E1893.86 F1500
G1 Y359.804 E1893.86
G1 X3.5001 Y0 E1944.2 F1500
G1 Y50.2001 E1944.2
G1 X3.5001 Y129.799 E1997.13 F1500
G1 Y230.198 E1997.13
G1 X3.5001 Y309.801 E2102.79 F1500
G1 Y359.804 E2102.79
G1 X3.4001 Y0 E2155.52 F1500
G1 Y54.4001 E2155.52
G1 X3.4001 Y125.599 E2211.22 F1500
G1 Y234.398 E2211.22
G1 X3.4001 Y305.6 E2322.43 F1500
G1 Y359.804 E2322.43
G1 X3.3001 Y0 E2377.93 F1500
G1 Y59.0002 E2377.93
G1 X3.3001 Y120.999 E2436.56 F1500
G1 Y238.997 E2436.56
G1 X3.3001 Y301 E2553.6 F1500
G1 Y359.804 E2553.6
G1 X3.2001 Y0 E2612.03 F1500
G1 Y64.8002 E2612.03
G1 X3.2001 Y115.199 E2674.39 F1500
G1 Y244.797 E2674.39
G1 X3.2001 Y295.2 E2798.93 F1500
G1 Y359.804 E2798.93
G1 X3.1001 Y0 E2861.1 F1500
G1 Y72.4 E2861.1
G1 X3.1001 Y107.6 E2928.64 F1500
G1 Y252.397 E2928.64
G1 X3.1001 Y287.599 E3063.51 F1500
G1 Y359.804 E3063.51
G1 X3.0001 Y0 E3130.86 F1500
G1 Y359.804 E3130.86
G1 X2.9001 Y0 E3454.65 F1500
G1 Y359.804 E3454.65
G1 X2.8001 Y0 E3767.89 F1500
G1 Y359.804 E3767.89
G1 X2.7001 Y0 E4070.06 F1500
G1 Y359.804 E4070.06
G1 X2.6001 Y0 E4361.68 F1500
G1 Y359.804 E4361.68
G1 X2.5001 Y0 E4642.75 F1500
G1 Y359.804 E4642.75
G1 X2.4001 Y0 E4912.75 F1500
G1 Y359.804 E4912.75
G1 X2.3001 Y0 E5172.2 F1500
G1 Y359.804 E5172.2
G1 X2.2001 Y0 E5421.11 F1500
G1 Y359.804 E5421.11
G1 X2.1001 Y0 E5658.41 F1500
G1 Y359.804 E5658.41
G1 X2.0001 Y0 E5885.17 F1500
G1 Y359.804 E5885.17
G1 X1.9001 Y0 E6101.38 F1500
G1 Y359.804 E6101.38
G1 X1.8001 Y0 E6307.05 F1500
G1 Y359.804 E6307.05
G1 X1.7001 Y0 E6501.11 F1500
G1 Y359.804 E6501.11
G1 X1.6001 Y0 E6684.63 F1500
G1 Y359.804 E6684.63
G1 X1.5001 Y0 E6857.59 F1500
G1 Y359.804 E6857.59
G1 X1.4001 Y0 E7020.02 F1500
G1 Y359.804 E7020.02
G1 X1.3001 Y0 E7170.84 F1500
G1 Y359.804 E7170.84
G1 X1.2001 Y0 E7311.11 F1500
G1 Y359.804 E7311.11
G1 X1.1001 Y0 E7440.84 F1500
G1 Y359.804 E7440.84
G1 X1.0001 Y0 E7560.02 F1500
G1 Y359.804 E7560.02
G1 X0.900103 Y0 E7667.59 F1500
G1 Y359.804 E7667.59
G1 X0.800103 Y0 E7764.63 F1500
G1 Y359.804 E7764.63
G1 X0.700103 Y0 E7851.11 F1500
G1 Y359.804 E7851.11
G1 X0.600103 Y0 E7927.05 F1500
G1 Y359.804 E7927.05
G1 X0.500103 Y0 E7991.38 F1500
G1 Y359.804 E7991.38
G1 X0.400103 Y0 E8045.17 F1500
G1 Y359.804 E8045.17
G1 X0.300103 Y0 E8088.41 F1500
G1 Y359.804 E8088.41
G1 X0.200103 Y0 E8121.11 F1500
G1 Y359.804 E8121.11
G1 X0.100103 Y0 E8142.2 F1500
G1 Y359.804 E8142.2
G1 X0.000102656 Y0 E8152.75 F1500
G1 Y359.804 E8152.75
G1 X0 Y0 Z0.3
G1 X5.0001 Y0 E8152.75 F1500
G1 Y2.6 E8152.75
G1 X5.0001 Y177.398 E8156.95 F1500
G1 Y182.598 E8156.95
G1 X5.0001 Y357.403 E8165.05 F1500
G1 Y359.804 E8165.05
G1 X4.9001 Y0 E8168.95 F1500
G1 Y9.2 E8168.95
G1 X4.9001 Y170.799 E8182.77 F1500
G1 Y189.198 E8182.77
G1 X4.9001 Y350.803 E8210.13 F1500
G1 Y359.804 E8210.13
G1 X4.8001 Y0 E8223.66 F1500
G1 Y12.8 E8223.66
G1 X4.8001 Y167.199 E8242.4 F1500
G1 Y192.798 E8242.4
G1 X4.8001 Y347.203 E8279.59 F1500
G1 Y359.804 E8279.59
G1 X4.7001 Y0 E8298.04 F1500
G1 Y16 E8298.04
G1 X4.7001 Y163.999 E8320.87 F1500
G1 Y195.998 E8320.87
G1 X4.7001 Y344.003 E8366.24 F1500
G1 Y359.804 E8366.24
G1 X4.6001 Y0 E8388.79 F1500
G1 Y18.8 E8388.79
G1 X4.6001 Y161.199 E8415.01 F1500
G1 Y198.798 E8415.01
G1 X4.6001 Y341.202 E8467.17 F1500
G1 Y359.804 E8467.17
G1 X4.5001 Y0 E8493.11 F1500
G1 Y21.4 E8493.11
G1 X4.5001 Y158.599 E8522.28 F1500
G1 Y201.398 E8522.28
G1 X4.5001 Y338.602 E8580.36 F1500
G1 Y359.804 E8580.36
G1 X4.4001 Y0 E8609.26 F1500
G1 Y24 E8609.26
G1 X4.4001 Y155.999 E8641.23 F1500
G1 Y203.998 E8641.23
G1 X4.4001 Y336.002 E8704.92 F1500
G1 Y359.804 E8704.92
G1 X4.3001 Y0 E8736.63 F1500
G1 Y26.6 E8736.63
G1 X4.3001 Y153.399 E8771.18 F1500
G1 Y206.598 E8771.18
G1 X4.3001 Y333.402 E8840.01 F1500
G1 Y359.804 E8840.01
G1 X4.2001 Y0 E8874.3 F1500
G1 Y29.2 E8874.3
G1 X4.2001 Y150.799 E8911.34 F1500
G1 Y209.198 E8911.34
G1 X4.2001 Y330.802 E8985.16 F1500
G1 Y359.804 E8985.16
G1 X4.1001 Y0 E9021.95 F1500
G1 Y31.8 E9021.95
G1 X4.1001 Y148.199 E9061.32 F1500
G1 Y211.798 E9061.32
G1 X4.1001 Y328.202 E9139.83 F1500
G1 Y359.804 E9139.83
G1 X4.0001 Y0 E9178.95 F1500
G1 Y34.4001 E9178.95
G1 X4.0001 Y145.599 E9220.51 F1500
G1 Y214.398 E9220.51
G1 X4.0001 Y325.601 E9303.4 F1500
G1 Y359.804 E9303.4
G1 X3.9001 Y0 E9344.72 F1500
G1 Y37.2001 E9344.72
G1 X3.9001 Y142.799 E9388.43 F1500
G1 Y217.198 E9388.43
G1 X3.9001 Y322.801 E9475.64 F1500
G1 Y359.804 E9475.64
G1 X3.8001 Y0 E9519.12 F1500
G1 Y40.2001 E9519.12
G1 X3.8001 Y139.799 E9565.16 F1500
G1 Y220.198 E9565.16
G1 X3.8001 Y319.801 E9657.02 F1500
G1 Y359.804 E9657.02
G1 X3.7001 Y0 E9702.83 F1500
G1 Y43.2001 E9702.83
G1 X3.7001 Y136.799 E9751.02 F1500
G1 Y223.198 E9751.02
G1 X3.7001 Y316.801 E9847.14 F1500
G1 Y359.804 E9847.14
G1 X3.6001 Y0 E9894.98 F1500
G1 Y46.6001 E9894.98
G1 X3.6001 Y133.399 E9945.43 F1500
G1 Y226.598 E9945.43
G1 X3.6001 Y313.401 E10046.1 F1500
G1 Y359.804 E10046.1
G1 X3.5001 Y0 E10096.4 F1500
G1 Y50.2001 E10096.4
G1 X3.5001 Y129.799 E10149.2 F1500
G1 Y230.198 E10149.2
G1 X3.5001 Y309.801 E10254.7 F1500
G1 Y359.804 E10254.7
G1 X3.4001 Y0 E10307.4 F1500
G1 Y54.4001 E10307.4
G1 X3.4001 Y125.599 E10363.1 F1500
G1 Y234.398 E10363.1
G1 X3.4001 Y305.6 E10474.2 F1500
G1 Y359.804 E10474.2
G1 X3.3001 Y0 E10529.7 F1500
G1 Y59.0002 E10529.7
G1 X3.3001 Y120.999 E10588.3 F1500
G1 Y238.997 E10588.3
G1 X3.3001 Y301 E10705.3 F1500
G1 Y359.804 E10705.3
G1 X3.2001 Y0 E10763.7 F1500
G1 Y64.8002 E10763.7
G1 X3.2001 Y115.199 E10826.2 F1500
G1 Y244.797 E10826.2
G1 X3.2001 Y295.2 E10950.9 F1500
G1 Y359.804 E10950.9
G1 X3.1001 Y0 E11013.2 F1500
G1 Y72.4 E11013.2
G1 X3.1001 Y107.6 E11080.8 F1500
G1 Y252.397 E11080.8
G1 X3.1001 Y287.599 E11215.9 F1500
G1 Y359.804 E11215.9
G1 X3.0001 Y0 E11283.4 F1500
G1 Y359.804 E11283.4
G1 X2.9001 Y0 E11608.2 F1500
G1 Y359.804 E11608.2
G1 X2.8001 Y0 E11920.4 F1500
G1 Y359.804 E11920.4
G1 X2.7001 Y0 E12222.1 F1500
G1 Y359.804 E12222.1
G1 X2.6001 Y0 E12513.1 F1500
G1 Y359.804 E12513.1
G1 X2.5001 Y0 E12793.7 F1500
G1 Y359.804 E12793.7
G1 X2.4001 Y0 E13063.7 F1500
G1 Y359.804 E13063.7
G1 X2.3001 Y0 E13323.1 F1500
G1 Y359.804 E13323.1
G1 X2.2001 Y0 E13572.1 F1500
G1 Y359.804 E13572.1
G1 X2.1001 Y0 E13810.4 F1500
G1 Y359.804 E13810.4
G1 X2.0001 Y0 E14038.2 F1500
G1 Y359.804 E14038.2
G1 X1.9001 Y0 E14253.4 F1500
G1 Y359.804 E14253.4
G1 X1.8001 Y0 E14458 F1500
G1 Y359.804 E14458
G1 X1.7001 Y0 E14652.1 F1500
G1 Y359.804 E14652.1
G1 X1.6001 Y0 E14835.6 F1500
G1 Y359.804 E14835.6
G1 X1.5001 Y0 E15008.5 F1500
G1 Y359.804 E15008.5
G1 X1.4001 Y0 E15171 F1500
G1 Y359.804 E15171
G1 X1.3001 Y0 E15322.8 F1500
G1 Y359.804 E15322.8
G1 X1.2001 Y0 E15464.2 F1500
G1 Y359.804 E15464.2
G1 X1.1001 Y0 E15592.8 F1500
G1 Y359.804 E15592.8
G1 X1.0001 Y0 E15711 F1500
G1 Y359.804 E15711
G1 X0.900103 Y0 E15818.5 F1500
G1 Y359.804 E15818.5
G1 X0.800103 Y0 E15915.6 F1500
G1 Y359.804 E15915.6
G1 X0.700103 Y0 E16002.1 F1500
G1 Y359.804 E16002.1
G1 X0.600103 Y0 E16078 F1500
G1 Y359.804 E16078
G1 X0.500103 Y0 E16143.4 F1500
G1 Y359.804 E16143.4
G1 X0.400103 Y0 E16198.2 F1500
G1 Y359.804 E16198.2
G1 X0.300103 Y0 E16240.4 F1500
G1 Y359.804 E16240.4
G1 X0.200103 Y0 E16272.1 F1500
G1 Y359.804 E16272.1
G1 X0.100103 Y0 E16293.1 F1500
G1 Y359.804 E16293.1
G1 X0.000102656 Y0 E16303.7 F1500
G1 Y359.804 E16303.7
G1 X0 Y0 Z0.6
G1 X5.0001 Y0 E16303.7 F1500
G1 Y2.6 E16303.7
G1 X5.0001 Y177.398 E16307.9 F1500
G1 Y182.598 E16307.9
G1 X5.0001 Y357.403 E16316 F1500
G1 Y359.804 E16316
G1 X4.9001 Y0 E16319.9 F1500
G1 Y9.2 E16319.9
G1 X4.9001 Y170.799 E16333.7 F1500
G1 Y189.198 E16333.7
G1 X4.9001 Y350.803 E16361.1 F1500
G1 Y359.804 E16361.1
G1 X4.8001 Y0 E16374.6 F1500
G1 Y12.8 E16374.6
G1 X4.8001 Y167.199 E16393.3 F1500
G1 Y192.798 E16393.3
G1 X4.8001 Y347.203 E16430.5 F1500
G1 Y359.804 E16430.5
G1 X4.7001 Y0 E16449 F1500
G1 Y16 E16449
G1 X4.7001 Y163.999 E16471.9 F1500
G1 Y195.998 E16471.9
G1 X4.7001 Y344.003 E16517.3 F1500
G1 Y359.804 E16517.3
G1 X4.6001 Y0 E16539.9 F1500
G1 Y18.8 E16539.9
G1 X4.6001 Y161.199 E16566.2 F1500
G1 Y198.798 E16566.2
G1 X4.6001 Y341.202 E16618.5 F1500
G1 Y359.804 E16618.5
G1 X4.5001 Y0 E16644.5 F1500
G1 Y21.4 E16644.5
G1 X4.5001 Y158.599 E16673.6 F1500
G1 Y201.398 E16673.6
G1 X4.5001 Y338.602 E16731.5 F1500
G1 Y359.804 E16731.5
G1 X4.4001 Y0 E16760.4 F1500
G1 Y24 E16760.4
G1 X4.4001 Y155.999 E16792.3 F1500
G1 Y203.998 E16792.3
G1 X4.4001 Y336.002 E16855.8 F1500
G1 Y359.804 E16855.8
G1 X4.3001 Y0 E16887.4 F1500
G1 Y26.6 E16887.4
G1 X4.3001 Y153.399 E16922 F1500
G1 Y206.598 E16922
G1 X4.3001 Y333.402 E16990.8 F1500
G1 Y359.804 E16990.8
G1 X4.2001 Y0 E17025.1 F1500
G1 Y29.2 E17025.1
G1 X4.2001 Y150.799 E17062.2 F1500
G1 Y209.198 E17062.2
G1 X4.2001 Y330.802 E17136 F1500
G1 Y359.804 E17136
G1 X4.1001 Y0 E17172.8 F1500
G1 Y31.8 E17172.8
G1 X4.1001 Y148.199 E17212.1 F1500
G1 Y211.798 E17212.1
G1 X4.1001 Y328.202 E17290.6 F1500
G1 Y359.804 E17290.6
G1 X4.0001 Y0 E17329.8 F1500
G1 Y34.4001 E17329.8
G1 X4.0001 Y145.599 E17371.3 F1500
G1 Y214.398 E17371.3
G1 X4.0001 Y325.601 E17454.2 F1500
G1 Y359.804 E17454.2
G1 X3.9001 Y0 E17495.5 F1500
G1 Y37.2001 E17495.5
G1 X3.9001 Y142.799 E17539.4 F1500
G1 Y217.198 E17539.4
G1 X3.9001 Y322.801 E17626.8 F1500
G1 Y359.804 E17626.8
G1 X3.8001 Y0 E17670.4 F1500
G1 Y40.2001 E17670.4
G1 X3.8001 Y139.799 E17716.5 F1500
G1 Y220.198 E17716.5
G1 X3.8001 Y319.801 E17808.6 F1500
G1 Y359.804 E17808.6
G1 X3.7001 Y0 E17854.6 F1500
G1 Y43.2001 E17854.6
G1 X3.7001 Y136.799 E17902.6 F1500
G1 Y223.198 E17902.6
G1 X3.7001 Y316.801 E17998.5 F1500
G1 Y359.804 E17998.5
G1 X3.6001 Y0 E18046.4 F1500
G1 Y46.6001 E18046.4
G1 X3.6001 Y133.399 E18096.8 F1500
G1 Y226.598 E18096.8
G1 X3.6001 Y313.401 E18197.5 F1500
G1 Y359.804 E18197.5
G1 X3.5001 Y0 E18247.8 F1500
G1 Y50.2001 E18247.8
G1 X3.5001 Y129.799 E18300.6 F1500
G1 Y230.198 E18300.6
G1 X3.5001 Y309.801 E18406.1 F1500
G1 Y359.804 E18406.1
G1 X3.4001 Y0 E18458.8 F1500
G1 Y54.4001 E18458.8
G1 X3.4001 Y125.599 E18514.4 F1500
G1 Y234.398 E18514.4
G1 X3.4001 Y305.6 E18625.6 F1500
G1 Y359.804 E18625.6
G1 X3.3001 Y0 E18681 F1500
G1 Y59.0002 E18681
G1 X3.3001 Y120.999 E18739.7 F1500
G1 Y238.997 E18739.7
G1 X3.3001 Y301 E18856.7 F1500
G1 Y359.804 E18856.7
G1 X3.2001 Y0 E18915.1 F1500
G1 Y64.8002 E18915.1
G1 X3.2001 Y115.199 E18977.6 F1500
G1 Y244.797 E18977.6
G1 X3.2001 Y295.2 E19102.3 F1500
G1 Y359.804 E19102.3
G1 X3.1001 Y0 E19164.6 F1500
G1 Y72.4 E19164.6
G1 X3.1001 Y107.6 E19232.2 F1500
G1 Y252.397 E19232.2
G1 X3.1001 Y287.599 E19367.3 F1500
G1 Y359.804 E19367.3
G1 X3.0001 Y0 E19434.8 F1500
G1 Y359.804 E19434.8
G1 X2.9001 Y0 E19759.6 F1500
G1 Y359.804 E19759.6
G1 X2.8001 Y0 E20071.8 F1500
G1 Y359.804 E20071.8
G1 X2.7001 Y0 E20375.5 F1500
G1 Y359.804 E20375.5
G1 X2.6001 Y0 E20666.6 F1500
G1 Y359.804 E20666.6
G1 X2.5001 Y0 E20949.3 F1500
G1 Y359.804 E20949.3
G1 X2.4001 Y0 E21219.3 F1500
G1 Y359.804 E21219.3
G1 X2.3001 Y0 E21476.6 F1500
G1 Y359.804 E21476.6
G1 X2.2001 Y0 E21725.5 F1500
G1 Y359.804 E21725.5
G1 X2.1001 Y0 E21961.8 F1500
G1 Y359.804 E21961.8
G1 X2.0001 Y0 E22189.6 F1500
G1 Y359.804 E22189.6
G1 X1.9001 Y0 E22404.8 F1500
G1 Y359.804 E22404.8
G1 X1.8001 Y0 E22611.5 F1500
G1 Y359.804 E22611.5
G1 X1.7001 Y0 E22805.5 F1500
G1 Y359.804 E22805.5
G1 X1.6001 Y0 E22991.2 F1500
G1 Y359.804 E22991.2
G1 X1.5001 Y0 E23164.1 F1500
G1 Y359.804 E23164.1
G1 X1.4001 Y0 E23324.5 F1500
G1 Y359.804 E23324.5
G1 X1.3001 Y0 E23476.3 F1500
G1 Y359.804 E23476.3
G1 X1.2001 Y0 E23615.5 F1500
G1 Y359.804 E23615.5
G1 X1.1001 Y0 E23746.3 F1500
G1 Y359.804 E23746.3
G1 X1.0001 Y0 E23864.5 F1500
G1 Y359.804 E23864.5
G1 X0.900103 Y0 E23974.1 F1500
G1 Y359.804 E23974.1
G1 X0.800103 Y0 E24071.2 F1500
G1 Y359.804 E24071.2
G1 X0.700103 Y0 E24155.5 F1500
G1 Y359.804 E24155.5
G1 X0.600103 Y0 E24231.5 F1500
G1 Y359.804 E24231.5
G1 X0.500103 Y0 E24294.8 F1500
G1 Y359.804 E24294.8
G1 X0.400103 Y0 E24349.6 F1500
G1 Y359.804 E24349.6
G1 X0.300103 Y0 E24391.8 F1500
G1 Y359.804 E24391.8
G1 X0.200103 Y0 E24425.5 F1500
G1 Y359.804 E24425.5
G1 X0.100103 Y0 E24446.6 F1500
G1 Y359.804 E24446.6
G1 X0.000102656 Y0 E24459.3 F1500
G1 Y359.804 E24459.3
G1 X0 Y0 Z0.9
G1 X5.0001 Y0 E24459.3 F1500
G1 Y2.6 E24459.3
G1 X5.0001 Y177.398 E24463.5 F1500
G1 Y182.598 E24463.5
G1 X5.0001 Y357.403 E24471.6 F1500
G1 Y359.804 E24471.6
G1 X4.9001 Y0 E24475.5 F1500
G1 Y9.2 E24475.5
G1 X4.9001 Y170.799 E24489.3 F1500
G1 Y189.198 E24489.3
G1 X4.9001 Y350.803 E24516.5 F1500
G1 Y359.804 E24516.5
G1 X4.8001 Y0 E24530 F1500
G1 Y12.8 E24530
G1 X4.8001 Y167.199 E24548.7 F1500
G1 Y192.798 E24548.7
G1 X4.8001 Y347.203 E24585.9 F1500
G1 Y359.804 E24585.9
G1 X4.7001 Y0 E24604.4 F1500
G1 Y16 E24604.4
G1 X4.7001 Y163.999 E24627.1 F1500
G1 Y195.998 E24627.1
G1 X4.7001 Y344.003 E24672.4 F1500
G1 Y359.804 E24672.4
G1 X4.6001 Y0 E24694.9 F1500
G1 Y18.8 E24694.9
G1 X4.6001 Y161.199 E24721.2 F1500
G1 Y198.798 E24721.2
G1 X4.6001 Y341.202 E24773.5 F1500
G1 Y359.804 E24773.5
G1 X4.5001 Y0 E24799.5 F1500
G1 Y21.4 E24799.5
G1 X4.5001 Y158.599 E24828.6 F1500
G1 Y201.398 E24828.6
G1 X4.5001 Y338.602 E24886.5 F1500
G1 Y359.804 E24886.5
G1 X4.4001 Y0 E24915.4 F1500
G1 Y24 E24915.4
G1 X4.4001 Y155.999 E24947.4 F1500
G1 Y203.998 E24947.4
G1 X4.4001 Y336.002 E25011.2 F1500
G1 Y359.804 E25011.2
G1 X4.3001 Y0 E25043 F1500
G1 Y26.6 E25043
G1 X4.3001 Y153.399 E25077.6 F1500
G1 Y206.598 E25077.6
G1 X4.3001 Y333.402 E25146.4 F1500
G1 Y359.804 E25146.4
G1 X4.2001 Y0 E25180.7 F1500
G1 Y29.2 E25180.7
G1 X4.2001 Y150.799 E25217.9 F1500
G1 Y209.198 E25217.9
G1 X4.2001 Y330.802 E25292.1 F1500
G1 Y359.804 E25292.1
G1 X4.1001 Y0 E25329 F1500
G1 Y31.8 E25329
G1 X4.1001 Y148.199 E25368.4 F1500
G1 Y211.798 E25368.4
G1 X4.1001 Y328.202 E25446.9 F1500
G1 Y359.804 E25446.9
G1 X4.0001 Y0 E25486 F1500
G1 Y34.4001 E25486
G1 X4.0001 Y145.599 E25527.4 F1500
G1 Y214.398 E25527.4
