; generated by slicer at2016-04-05 15:39:40
X0 Y0 Z0
X1.0001 Y0
Y0.00436332
Y0.00872665
Y0.01309
Y0.776672
Y0.781035
Y0.785398
Y0.789761
Y0.794125
Y1.55771
Y1.56207
Y1.56643
Y1.5708
Y1.57516
Y1.57952
Y3.13287
Y3.13723
Y3.14159
Y3.14596
Y3.15032
Y3.15468
Y3.15905
Y3.16341
Y3.16777
Y3.90081
Y3.90517
Y3.90954
Y3.9139
Y3.91826
Y3.92263
Y3.92699
Y3.93135
Y3.93572
Y4.70366
Y4.70803
Y4.71239
Y4.71675
Y4.72112
Y6.27446
Y6.27882
X0.9901 Y0
Y0.00436332
Y0.00872665
Y0.01309
Y0.0174533
Y0.0218166
Y0.772308
Y0.776672
Y0.781035
Y0.785398
Y0.789761
Y0.794125
Y1.54898
Y1.55334
Y1.55771
Y1.56207
Y1.56643
Y1.5708
Y1.57516
Y1.57952
Y3.13287
Y3.13723
Y3.14159
Y3.14596
Y3.15032
Y3.15468
Y3.15905
Y3.16341
Y3.16777
Y3.17214
Y3.1765
Y3.18086
Y3.18523
Y3.18959
Y3.19395
Y3.87463
Y3.87899
Y3.88336
Y3.88772
Y3.89208
Y3.89645
Y3.90081
Y3.90517
Y3.90954
Y3.9139
Y3.91826
Y3.92263
Y3.92699
Y3.93135
Y3.93572
Y4.70366
Y4.70803
Y4.71239
Y4.71675
Y4.72112
Y4.72548
Y6.27446
Y6.27882
X0.9801 Y0
Y0.00436332
Y0.00872665
Y0.01309
Y0.0174533
Y0.0218166
Y0.0261799
Y0.0305433
Y0.0349066
Y0.767945
Y0.772308
Y0.776672
Y0.781035
Y0.785398
Y0.789761
Y0.794125
Y1.53589
Y1.54025
Y1.54462
Y1.54898
Y1.55334
Y1.55771
Y1.56207
Y1.56643
Y1.5708
Y1.57516
Y1.57952
Y3.13287
Y3.13723
Y3.14159
Y3.14596
Y3.15032
Y3.15468
Y3.15905
Y3.16341
Y3.16777
Y3.17214
Y3.1765
Y3.18086
Y3.18523
Y3.18959
Y3.19395
Y3.19832
Y3.20268
Y3.20704
Y3.21141
Y3.21577
Y3.22013
Y3.2245
Y3.84409
Y3.84845
Y3.85281
Y3.85718
Y3.86154
Y3.8659
Y3.87027
Y3.87463
Y3.87899
Y3.88336
Y3.88772
Y3.89208
Y3.89645
Y3.90081
Y3.90517
Y3.90954
Y3.9139
Y3.91826
Y3.92263
Y3.92699
Y3.93135
Y3.93572
Y4.70366
Y4.70803
Y4.71239
Y4.71675
Y4.72112
Y4.72548
Y4.72984
Y6.27446
Y6.27882
X0.9701 Y0
Y0.00436332
Y0.00872665
Y0.01309
Y0.0174533
Y0.0218166
Y0.0261799
Y0.0305433
Y0.0349066
Y0.0392699
Y0.0436332
Y0.763582
Y0.767945
Y0.772308
Y0.776672
Y0.781035
Y0.785398
Y0.789761
Y0.794125
Y1.52716
Y1.53153
Y1.53589
Y1.54025
Y1.54462
Y1.54898
Y1.55334
Y1.55771
Y1.56207
Y1.56643
Y1.5708
Y1.57516
Y1.57952
Y3.13287
Y3.13723
Y3.14159
Y3.14596
Y3.15032
Y3.15468
Y3.15905
Y3.16341
Y3.16777
Y3.17214
Y3.1765
Y3.18086
Y3.18523
Y3.18959
Y3.19395
Y3.19832
Y3.20268
Y3.20704
Y3.21141
Y3.21577
Y3.22013
Y3.2245
Y3.22886
Y3.23322
Y3.23759
Y3.24195
Y3.24631
Y3.25068
Y3.25504
Y3.2594
Y3.80918
Y3.81354
Y3.81791
Y3.82227
Y3.82663
Y3.831
Y3.83536
Y3.83972
Y3.84409
Y3.84845
Y3.85281
Y3.85718
Y3.86154
Y3.8659
Y3.87027
Y3.87463
Y3.87899
Y3.88336
Y3.88772
Y3.89208
Y3.89645
Y3.90081
Y3.90517
Y3.90954
Y3.9139
Y3.91826
Y3.92263
Y3.92699
Y3.93135
Y3.93572
Y4.70366
Y4.70803
Y4.71239
Y4.71675
Y4.72112
Y4.72548
Y4.72984
Y4.73421
Y6.27446
Y6.27882
X0.9601 Y0
Y0.00436332
Y0.00872665
Y0.01309
Y0.0174533
Y0.0218166
Y0.0261799
Y0.0305433
Y0.0349066
Y0.0392699
Y0.0436332
Y0.0479966
Y0.0523599
Y0.0567232
Y0.759218
Y0.763582
Y0.767945
Y0.772308
Y0.776672
Y0.781035
Y0.785398
Y0.789761
Y0.794125
Y1.51407
Y1.51844
Y1.5228
Y1.52716
Y1.53153
Y1.53589
Y1.54025
Y1.54462
Y1.54898
Y1.55334
Y1.55771
Y1.56207
Y1.56643
Y1.5708
Y1.57516
Y1.57952
Y3.13287
Y3.13723
Y3.14159
Y3.14596
Y3.15032
Y3.15468
Y3.15905
Y3.16341
Y3.16777
Y3.17214
Y3.1765
Y3.18086
Y3.18523
Y3.18959
Y3.19395
Y3.19832
Y3.20268
Y3.20704
Y3.21141
Y3.21577
Y3.22013
Y3.2245
Y3.22886
Y3.23322
Y3.23759
Y3.24195
Y3.24631
Y3.25068
Y3.25504
Y3.2594
Y3.26377
Y3.26813
Y3.27249
Y3.27686
Y3.28122
Y3.28558
Y3.28995
Y3.29431
Y3.29867
Y3.76991
Y3.77427
Y3.77864
Y3.783
Y3.78736
Y3.79173
Y3.79609
Y3.80045
Y3.80482
Y3.80918
Y3.81354
Y3.81791
Y3.82227
Y3.82663
Y3.831
Y3.83536
Y3.83972
Y3.84409
Y3.84845
Y3.85281
Y3.85718
Y3.86154
Y3.8659
Y3.87027
Y3.87463
Y3.87899
Y3.88336
Y3.88772
Y3.89208
Y3.89645
Y3.90081
Y3.90517
Y3.90954
Y3.9139
Y3.91826
Y3.92263
Y3.92699
Y3.93135
Y3.93572
Y4.70366
Y4.70803
Y4.71239
Y4.71675
Y4.72112
Y4.72548
Y4.72984
Y4.73421
Y4.73857
Y6.27446
Y6.27882
X0.9501 Y0
Y0.00436332
Y0.00872665
Y0.01309
Y0.0174533
Y0.0218166
Y0.0261799
Y0.0305433
Y0.0349066
Y0.0392699
Y0.0436332
Y0.0479966
Y0.0523599
Y0.0567232
Y0.0610865
Y0.0654498
Y0.0698132
Y0.754855
Y0.759218
Y0.763582
Y0.767945
Y0.772308
Y0.776672
Y0.781035
Y0.785398
Y0.789761
Y0.794125
Y1.50098
Y1.50535
Y1.50971
Y1.51407
Y1.51844
Y1.5228
Y1.52716
Y1.53153
Y1.53589
Y1.54025
Y1.54462
Y1.54898
Y1.55334
Y1.55771
Y1.56207
Y1.56643
Y1.5708
Y1.57516
Y1.57952
Y3.13287
Y3.13723
Y3.14159
Y3.14596
Y3.15032
Y3.15468
Y3.15905
Y3.16341
Y3.16777
Y3.17214
Y3.1765
Y3.18086
Y3.18523
Y3.18959
Y3.19395
Y3.19832
Y3.20268
Y3.20704
Y3.21141
Y3.21577
Y3.22013
Y3.2245
Y3.22886
Y3.23322
Y3.23759
Y3.24195
Y3.24631
Y3.25068
Y3.25504
Y3.2594
Y3.26377
Y3.26813
Y3.27249
Y3.27686
Y3.28122
Y3.28558
Y3.28995
Y3.29431
Y3.29867
Y3.30304
Y3.3074
Y3.31176
Y3.31613
Y3.32049
Y3.32485
Y3.32922
Y3.33358
Y3.33794
Y3.34231
Y3.34667
Y3.72191
Y3.72628
Y3.73064
Y3.735
Y3.73937
Y3.74373
Y3.74809
Y3.75246
Y3.75682
Y3.76118
Y3.76555
Y3.76991
Y3.77427
Y3.77864
Y3.783
Y3.78736
Y3.79173
Y3.79609
Y3.80045
Y3.80482
Y3.80918
Y3.81354
Y3.81791
Y3.82227
Y3.82663
Y3.831
Y3.83536
Y3.83972
Y3.84409
Y3.84845
Y3.85281
Y3.85718
Y3.86154
Y3.8659
Y3.87027
Y3.87463
Y3.87899
Y3.88336
Y3.88772
Y3.89208
Y3.89645
Y3.90081
Y3.90517
Y3.90954
Y3.9139
Y3.91826
Y3.92263
Y3.92699
Y3.93135
Y3.93572
Y4.70366
Y4.70803
Y4.71239
Y4.71675
Y4.72112
Y4.72548
Y4.72984
Y4.73421
Y4.73857
Y4.74293
Y6.27446
Y6.27882
X0.9401 Y0
Y0.00436332
Y0.00872665
Y0.01309
Y0.0174533
Y0.0218166
Y0.0261799
Y0.0305433
Y0.0349066
Y0.0392699
Y0.0436332
Y0.0479966
Y0.0523599
Y0.0567232
Y0.0610865
Y0.0654498
Y0.0698132
Y0.0741765
Y0.0785398
Y0.750492
Y0.754855
Y0.759218
Y0.763582
Y0.767945
Y0.772308
Y0.776672
Y0.781035
Y0.785398
Y0.789761
Y0.794125
Y1.49226
Y1.49662
Y1.50098
Y1.50535
Y1.50971
Y1.51407
Y1.51844
Y1.5228
Y1.52716
Y1.53153
Y1.53589
Y1.54025
Y1.54462
Y1.54898
Y1.55334
Y1.55771
Y1.56207
Y1.56643
Y1.5708
Y1.57516
Y1.57952
Y3.13287
Y3.13723
Y3.14159
Y3.14596
Y3.15032
Y3.15468
Y3.15905
Y3.16341
Y3.16777
Y3.17214
Y3.1765
Y3.18086
Y3.18523
Y3.18959
Y3.19395
Y3.19832
Y3.20268
Y3.20704
Y3.21141
Y3.21577
Y3.22013
Y3.2245
Y3.22886
Y3.23322
Y3.23759
Y3.24195
Y3.24631
Y3.25068
Y3.25504
Y3.2594
Y3.26377
Y3.26813
Y3.27249
Y3.27686
Y3.28122
Y3.28558
Y3.28995
Y3.29431
Y3.29867
Y3.30304
Y3.3074
Y3.31176
Y3.31613
Y3.32049
Y3.32485
Y3.32922
Y3.33358
Y3.33794
Y3.34231
Y3.34667
Y3.35103
Y3.3554
Y3.35976
Y3.36412
Y3.36849
Y3.37285
Y3.37721
Y3.38158
Y3.38594
Y3.3903
Y3.39467
Y3.39903
Y3.40339
Y3.40776
Y3.41212
Y3.41648
Y3.6521
Y3.65646
Y3.66083
Y3.66519
Y3.66955
Y3.67392
Y3.67828
Y3.68264
Y3.68701
Y3.69137
Y3.69573
Y3.7001
Y3.70446
Y3.70882
Y3.71319
Y3.71755
Y3.72191
Y3.72628
Y3.73064
Y3.735
Y3.73937
Y3.74373
Y3.74809
Y3.75246
Y3.75682
Y3.76118
Y3.76555
Y3.76991
Y3.77427
Y3.77864
Y3.783
Y3.78736
Y3.79173
Y3.79609
Y3.80045
Y3.80482
Y3.80918
Y3.81354
Y3.81791
Y3.82227
Y3.82663
Y3.831
Y3.83536
Y3.83972
Y3.84409
Y3.84845
Y3.85281
Y3.85718
Y3.86154
Y3.8659
Y3.87027
Y3.87463
Y3.87899
Y3.88336
Y3.88772
Y3.89208
Y3.89645
Y3.90081
Y3.90517
Y3.90954
Y3.9139
Y3.91826
Y3.92263
Y3.92699
Y3.93135
Y3.93572
Y4.70366
Y4.70803
Y4.71239
Y4.71675
Y4.72112
Y4.72548
Y4.72984
Y4.73421
Y4.73857
Y4.74293
Y4.7473
Y6.27446
Y6.27882
X0.9301 Y0
Y0.00436332
Y0.00872665
Y0.01309
Y0.0174533
Y0.0218166
Y0.0261799
Y0.0305433
Y0.0349066
Y0.0392699
Y0.0436332
Y0.0479966
Y0.0523599
Y0.0567232
Y0.0610865
Y0.0654498
Y0.0698132
Y0.0741765
Y0.0785398
Y0.0829031
Y0.0872665
Y0.0916298
Y0.746128
Y0.750492
Y0.754855
Y0.759218
Y0.763582
Y0.767945
Y0.772308
Y0.776672
Y0.781035
Y0.785398
Y0.789761
Y0.794125
Y1.47917
Y1.48353
Y1.48789
Y1.49226
Y1.49662
Y1.50098
Y1.50535
Y1.50971
Y1.51407
Y1.51844
Y1.5228
Y1.52716
Y1.53153
Y1.53589
Y1.54025
Y1.54462
Y1.54898
Y1.55334
Y1.55771
Y1.56207
Y1.56643
Y1.5708
Y1.57516
Y1.57952
Y3.13287
Y3.13723
Y3.14159
Y3.14596
Y3.15032
Y3.15468
Y3.15905
Y3.16341
Y3.16777
Y3.17214
Y3.1765
Y3.18086
Y3.18523
Y3.18959
Y3.19395
Y3.19832
Y3.20268
Y3.20704
Y3.21141
Y3.21577
Y3.22013
Y3.2245
Y3.22886
Y3.23322
Y3.23759
Y3.24195
Y3.24631
Y3.25068
Y3.25504
Y3.2594
Y3.26377
Y3.26813
Y3.27249
Y3.27686
Y3.28122
Y3.28558
Y3.28995
Y3.29431
Y3.29867
Y3.30304
Y3.3074
Y3.31176
Y3.31613
Y3.32049
Y3.32485
Y3.32922
Y3.33358
Y3.33794
Y3.34231
Y3.34667
Y3.35103
Y3.3554
Y3.35976
Y3.36412
Y3.36849
Y3.37285
Y3.37721
Y3.38158
Y3.38594
Y3.3903
Y3.39467
Y3.39903
Y3.40339
Y3.40776
Y3.41212
Y3.41648
Y3.42085
Y3.42521
Y3.42957
Y3.43394
Y3.4383
Y3.44266
Y3.44703
Y3.45139
Y3.45575
Y3.46012
Y3.46448
Y3.46884
Y3.47321
Y3.47757
Y3.48193
Y3.4863
Y3.49066
Y3.49502
Y3.49939
Y3.50375
Y3.50811
Y3.51248
Y3.51684
Y3.5212
Y3.52557
Y3.52993
Y3.53429
Y3.53866
Y3.54302
Y3.54738
Y3.55175
Y3.55611
Y3.56047
Y3.56483
Y3.5692
Y3.57356
Y3.57792
Y3.58229
Y3.58665
Y3.59101
Y3.59538
Y3.59974
Y3.6041
Y3.60847
Y3.61283
Y3.61719
Y3.62156
Y3.62592
Y3.63028
Y3.63465
Y3.63901
Y3.64337
Y3.64774
Y3.6521
Y3.65646
Y3.66083
Y3.66519
Y3.66955
Y3.67392
Y3.67828
Y3.68264
Y3.68701
Y3.69137
Y3.69573
Y3.7001
Y3.70446
Y3.70882
Y3.71319
Y3.71755
Y3.72191
Y3.72628
Y3.73064
Y3.735
Y3.73937
Y3.74373
Y3.74809
Y3.75246
Y3.75682
Y3.76118
Y3.76555
Y3.76991
Y3.77427
Y3.77864
Y3.783
Y3.78736
Y3.79173
Y3.79609
Y3.80045
Y3.80482
Y3.80918
Y3.81354
Y3.81791
Y3.82227
Y3.82663
Y3.831
Y3.83536
Y3.83972
Y3.84409
Y3.84845
Y3.85281
Y3.85718
Y3.86154
Y3.8659
Y3.87027
Y3.87463
Y3.87899
Y3.88336
Y3.88772
Y3.89208
Y3.89645
Y3.90081
Y3.90517
Y3.90954
Y3.9139
Y3.91826
Y3.92263
Y3.92699
Y3.93135
Y3.93572
Y4.70366
Y4.70803
Y4.71239
Y4.71675
Y4.72112
Y4.72548
Y4.72984
Y4.73421
Y4.73857
Y4.74293
Y4.7473
Y4.75166
Y6.27446
Y6.27882
X0.9201 Y0
Y0.00436332
Y0.00872665
Y0.01309
Y0.0174533
Y0.0218166
Y0.0261799
Y0.0305433
Y0.0349066
Y0.0392699
Y0.0436332
Y0.0479966
Y0.0523599
Y0.0567232
Y0.0610865
Y0.0654498
Y0.0698132
Y0.0741765
Y0.0785398
Y0.0829031
Y0.0872665
Y0.0916298
Y0.0959931
Y0.100356
Y0.10472
Y0.737402
Y0.741765
Y0.746128
Y0.750492
Y0.754855
Y0.759218
Y0.763582
Y0.767945
Y0.772308
Y0.776672
Y0.781035
Y0.785398
Y0.789761
Y0.794125
Y1.46608
Y1.47044
Y1.4748
Y1.47917
Y1.48353
Y1.48789
Y1.49226
Y1.49662
Y1.50098
Y1.50535
Y1.50971
Y1.51407
Y1.51844
Y1.5228
Y1.52716
Y1.53153
Y1.53589
Y1.54025
Y1.54462
Y1.54898
Y1.55334
Y1.55771
Y1.56207
Y1.56643
Y1.5708
Y1.57516
Y1.57952
Y3.13287
Y3.13723
Y3.14159
Y3.14596
Y3.15032
Y3.15468
Y3.15905
Y3.16341
Y3.16777
Y3.17214
Y3.1765
Y3.18086
Y3.18523
Y3.18959
Y3.19395
Y3.19832
Y3.20268
Y3.20704
Y3.21141
Y3.21577
Y3.22013
Y3.2245
Y3.22886
Y3.23322
Y3.23759
Y3.24195
Y3.24631
Y3.25068
Y3.25504
Y3.2594
Y3.26377
Y3.26813
Y3.27249
Y3.27686
Y3.28122
Y3.28558
Y3.28995
Y3.29431
Y3.29867
Y3.30304
Y3.3074
Y3.31176
Y3.31613
Y3.32049
Y3.32485
Y3.32922
Y3.33358
Y3.33794
Y3.34231
Y3.34667
Y3.35103
Y3.3554
Y3.35976
Y3.36412
Y3.36849
Y3.37285
Y3.37721
Y3.38158
Y3.38594
Y3.3903
Y3.39467
Y3.39903
Y3.40339
Y3.40776
Y3.41212
Y3.41648
Y3.42085
Y3.42521
Y3.42957
Y3.43394
Y3.4383
Y3.44266
Y3.44703
Y3.45139
Y3.45575
Y3.46012
Y3.46448
Y3.46884
Y3.47321
Y3.47757
Y3.48193
Y3.4863
Y3.49066
Y3.49502
Y3.49939
Y3.50375
Y3.50811
Y3.51248
Y3.51684
Y3.5212
Y3.52557
Y3.52993
Y3.53429
Y3.53866
Y3.54302
Y3.54738
Y3.55175
Y3.55611
Y3.56047
Y3.56483
Y3.5692
Y3.57356
Y3.57792
Y3.58229
Y3.58665
Y3.59101
Y3.59538
Y3.59974
Y3.6041
Y3.60847
Y3.61283
Y3.61719
Y3.62156
Y3.62592
Y3.63028
Y3.63465
Y3.63901
Y3.64337
Y3.64774
Y3.6521
Y3.65646
Y3.66083
Y3.66519
Y3.66955
Y3.67392
Y3.67828
Y3.68264
Y3.68701
Y3.69137
Y3.69573
Y3.7001
Y3.70446
Y3.70882
Y3.71319
Y3.71755
Y3.72191
Y3.72628
Y3.73064
Y3.735
Y3.73937
Y3.74373
Y3.74809
Y3.75246
Y3.75682
Y3.76118
Y3.76555
Y3.76991
Y3.77427
Y3.77864
Y3.783
Y3.78736
Y3.79173
Y3.79609
Y3.80045
Y3.80482
Y3.80918
Y3.81354
Y3.81791
Y3.82227
Y3.82663
Y3.831
Y3.83536
Y3.83972
Y3.84409
Y3.84845
Y3.85281
Y3.85718
Y3.86154
Y3.8659
Y3.87027
Y3.87463
Y3.87899
Y3.88336
Y3.88772
Y3.89208
Y3.89645
Y3.90081
Y3.90517
Y3.90954
Y3.9139
Y3.91826
Y3.92263
Y3.92699
Y3.93135
Y3.93572
Y4.70366
Y4.70803
Y4.71239
Y4.71675
Y4.72112
Y4.72548
Y4.72984
Y4.73421
Y4.73857
Y4.74293
Y4.7473
Y4.75166
Y4.75602
Y4.76039
Y6.27446
Y6.27882
X0.9101 Y0
Y0.00436332
Y0.00872665
Y0.01309
Y0.0174533
Y0.0218166
Y0.0261799
Y0.0305433
Y0.0349066
Y0.0392699
Y0.0436332
Y0.0479966
Y0.0523599
Y0.0567232
Y0.0610865
Y0.0654498
Y0.0698132
Y0.0741765
Y0.0785398
Y0.0829031
Y0.0872665
Y0.0916298
Y0.0959931
Y0.100356
Y0.10472
Y0.109083
Y0.113446
Y0.11781
Y0.733038
Y0.737402
Y0.741765
Y0.746128
Y0.750492
Y0.754855
Y0.759218
Y0.763582
Y0.767945
Y0.772308
Y0.776672
Y0.781035
Y0.785398
Y0.789761
Y0.794125
Y1.45299
Y1.45735
Y1.46171
Y1.46608
Y1.47044
Y1.4748
Y1.47917
Y1.48353
Y1.48789
Y1.49226
Y1.49662
Y1.50098
Y1.50535
Y1.50971
Y1.51407
Y1.51844
Y1.5228
Y1.52716
Y1.53153
Y1.53589
Y1.54025
Y1.54462
Y1.54898
Y1.55334
Y1.55771
Y1.56207
Y1.56643
Y1.5708
Y1.57516
Y1.57952
Y3.13287
Y3.13723
Y3.14159
Y3.14596
Y3.15032
Y3.15468
Y3.15905
Y3.16341
Y3.16777
Y3.17214
Y3.1765
Y3.18086
Y3.18523
Y3.18959
Y3.19395
Y3.19832
Y3.20268
Y3.20704
Y3.21141
Y3.21577
Y3.22013
Y3.2245
Y3.22886
Y3.23322
Y3.23759
Y3.24195
Y3.24631
Y3.25068
Y3.25504
Y3.2594
Y3.26377
Y3.26813
Y3.27249
Y3.27686
Y3.28122
Y3.28558
Y3.28995
Y3.29431
Y3.29867
Y3.30304
Y3.3074
Y3.31176
Y3.31613
Y3.32049
Y3.32485
Y3.32922
Y3.33358
Y3.33794
Y3.34231
Y3.34667
Y3.35103
Y3.3554
Y3.35976
Y3.36412
Y3.36849
Y3.37285
Y3.37721
Y3.38158
Y3.38594
Y3.3903
Y3.39467
Y3.39903
Y3.40339
Y3.40776
Y3.41212
Y3.41648
Y3.42085
Y3.42521
Y3.42957
Y3.43394
Y3.4383
Y3.44266
Y3.44703
Y3.45139
Y3.45575
Y3.46012
Y3.46448
Y3.46884
Y3.47321
Y3.47757
Y3.48193
Y3.4863
Y3.49066
Y3.49502
Y3.49939
Y3.50375
Y3.50811
Y3.51248
Y3.51684
Y3.5212
Y3.52557
Y3.52993
Y3.53429
Y3.53866
Y3.54302
Y3.54738
Y3.55175
Y3.55611
Y3.56047
Y3.56483
Y3.5692
Y3.57356
Y3.57792
Y3.58229
Y3.58665
Y3.59101
Y3.59538
Y3.59974
Y3.6041
Y3.60847
Y3.61283
Y3.61719
Y3.62156
Y3.62592
Y3.63028
Y3.63465
Y3.63901
Y3.64337
Y3.64774
Y3.6521
Y3.65646
Y3.66083
Y3.66519
Y3.66955
Y3.67392
Y3.67828
Y3.68264
Y3.68701
Y3.69137
Y3.69573
Y3.7001
Y3.70446
Y3.70882
Y3.71319
Y3.71755
Y3.72191
Y3.72628
Y3.73064
Y3.735
Y3.73937
Y3.74373
Y3.74809
Y3.75246
Y3.75682
Y3.76118
Y3.76555
Y3.76991
Y3.77427
Y3.77864
Y3.783
Y3.78736
Y3.79173
Y3.79609
Y3.80045
Y3.80482
Y3.80918
Y3.81354
Y3.81791
Y3.82227
Y3.82663
Y3.831
Y3.83536
Y3.83972
Y3.84409
Y3.84845
Y3.85281
Y3.85718
Y3.86154
Y3.8659
Y3.87027
Y3.87463
Y3.87899
Y3.88336
Y3.88772
Y3.89208
Y3.89645
Y3.90081
Y3.90517
Y3.90954
Y3.9139
Y3.91826
Y3.92263
Y3.92699
Y3.93135
Y3.93572
Y4.70366
Y4.70803
Y4.71239
Y4.71675
Y4.72112
Y4.72548
Y4.72984
Y4.73421
Y4.73857
Y4.74293
Y4.7473
Y4.75166
Y4.75602
Y4.76039
Y4.76475
Y6.27446
Y6.27882
X0.9001 Y0
Y0.00436332
Y0.00872665
Y0.01309
Y0.0174533
Y0.0218166
Y0.0261799
Y0.0305433
Y0.0349066
Y0.0392699
Y0.0436332
Y0.0479966
Y0.0523599
Y0.0567232
Y0.0610865
Y0.0654498
Y0.0698132
Y0.0741765
Y0.0785398
Y0.0829031
Y0.0872665
Y0.0916298
Y0.0959931
Y0.100356
Y0.10472
Y0.109083
Y0.113446
Y0.11781
Y0.122173
Y0.126536
Y0.1309
Y0.135263
Y0.728675
Y0.733038
Y0.737402
Y0.741765
Y0.746128
Y0.750492
Y0.754855
Y0.759218
Y0.763582
Y0.767945
Y0.772308
Y0.776672
Y0.781035
Y0.785398
Y0.789761
Y0.794125
Y1.43553
Y1.4399
Y1.44426
Y1.44862
Y1.45299
Y1.45735
Y1.46171
Y1.46608
Y1.47044
Y1.4748
Y1.47917
Y1.48353
Y1.48789
Y1.49226
Y1.49662
Y1.50098
Y1.50535
Y1.50971
Y1.51407
Y1.51844
Y1.5228
Y1.52716
Y1.53153
Y1.53589
Y1.54025
Y1.54462
Y1.54898
Y1.55334
Y1.55771
Y1.56207
Y1.56643
Y1.5708
Y1.57516
Y1.57952
Y3.13287
Y3.13723
Y3.14159
Y3.14596
Y3.15032
Y3.15468
Y3.15905
Y3.16341
Y3.16777
Y3.17214
Y3.1765
Y3.18086
Y3.18523
Y3.18959
Y3.19395
Y3.19832
Y3.20268
Y3.20704
Y3.21141
Y3.21577
Y3.22013
Y3.2245
Y3.22886
Y3.23322
Y3.23759
Y3.24195
Y3.24631
Y3.25068
Y3.25504
Y3.2594
Y3.26377
Y3.26813
Y3.27249
Y3.27686
Y3.28122
Y3.28558
Y3.28995
Y3.29431
Y3.29867
Y3.30304
Y3.3074
Y3.31176
Y3.31613
Y3.32049
Y3.32485
Y3.32922
Y3.33358
Y3.33794
Y3.34231
Y3.34667
Y3.35103
Y3.3554
Y3.35976
Y3.36412
Y3.36849
Y3.37285
Y3.37721
Y3.38158
Y3.38594
Y3.3903
Y3.39467
Y3.39903
Y3.40339
Y3.40776
Y3.41212
Y3.41648
Y3.42085
Y3.42521
Y3.42957
Y3.43394
Y3.4383
Y3.44266
Y3.44703
Y3.45139
Y3.45575
Y3.46012
Y3.46448
Y3.46884
Y3.47321
Y3.47757
Y3.48193
Y3.4863
Y3.49066
Y3.49502
Y3.49939
Y3.50375
Y3.50811
Y3.51248
Y3.51684
Y3.5212
Y3.52557
Y3.52993
Y3.53429
