; generated by slicer at 2016-05-14 11:59:03
G21; set units to millimeters
M107
M104 S200; set temperature
G92 X0 Y0
G28 Z
G1 Z10
G28 X
G28 Z
G1 Z4.8; Z axis set zero
G92 Z0
M109 S200; wait for temperature to be reached
G90; use absolute coordinates
M82; use absolute distances for extrusion
G0 X94
G92 E0 X0; X axis set zero
G1 X0 Y0 Z0
G1 X5.0001 Y0 E0 F1500
G1 Y2.6 E0
G1 X5.0001 Y177.398 E4.20008 F1500
G1 Y182.598 E4.20008
G1 X5.0001 Y357.403 E12.3002 F1500
G1 Y359.804 E12.3002
G1 X4.6001 Y0 E16.2003 F1500
G1 Y18.8 E16.2003
G1 X4.6001 Y161.199 E42.4209 F1500
G1 Y198.798 E42.4209
G1 X4.6001 Y341.202 E94.5856 F1500
G1 Y359.804 E94.5856
G1 X4.2001 Y0 E120.53 F1500
G1 Y29.2 E120.53
G1 X4.2001 Y150.799 E157.575 F1500
G1 Y209.198 E157.575
G1 X4.2001 Y330.802 E231.414 F1500
G1 Y359.804 E231.414
G1 X3.8001 Y0 E268.207 F1500
G1 Y40.2001 E268.207
G1 X3.8001 Y139.799 E314.263 F1500
G1 Y220.198 E314.263
G1 X3.8001 Y319.801 E406.149 F1500
G1 Y359.804 E406.149
G1 X3.4001 Y0 E451.977 F1500
G1 Y54.4001 E451.977
G1 X3.4001 Y125.599 E507.673 F1500
G1 Y234.398 E507.673
G1 X3.4001 Y305.6 E618.861 F1500
G1 Y359.804 E618.861
G1 X3.0001 Y0 E674.344 F1500
G1 Y359.804 E674.344
G1 X2.6001 Y0 E998.397 F1500
G1 Y359.804 E998.397
G1 X2.2001 Y0 E1279.21 F1500
G1 Y359.804 E1279.21
G1 X1.8001 Y0 E1516.78 F1500
G1 Y359.804 E1516.78
G1 X1.4001 Y0 E1711.1 F1500
G1 Y359.804 E1711.1
G1 X1.0001 Y0 E1862.19 F1500
G1 Y359.804 E1862.19
G1 X0.6001 Y0 E1970.29 F1500
G1 Y359.804 E1970.29
G1 X0.2001 Y0 E2035.15 F1500
G1 Y359.804 E2035.15
G1 X0 Y0 Z0.3
G1 X5.0001 Y0 E2056.78 F1500
G1 Y2.6 E2056.78
G1 X5.0001 Y177.398 E2060.98 F1500
G1 Y182.598 E2060.98
G1 X5.0001 Y357.403 E2069.08 F1500
G1 Y359.804 E2069.08
G1 X4.6001 Y0 E2072.98 F1500
G1 Y18.8 E2072.98
G1 X4.6001 Y161.199 E2099.19 F1500
G1 Y198.798 E2099.19
G1 X4.6001 Y341.202 E2151.35 F1500
G1 Y359.804 E2151.35
G1 X4.2001 Y0 E2177.29 F1500
G1 Y29.2 E2177.29
G1 X4.2001 Y150.799 E2214.33 F1500
G1 Y209.198 E2214.33
G1 X4.2001 Y330.802 E2288.15 F1500
G1 Y359.804 E2288.15
G1 X3.8001 Y0 E2324.94 F1500
G1 Y40.2001 E2324.94
G1 X3.8001 Y139.799 E2371.01 F1500
G1 Y220.198 E2371.01
G1 X3.8001 Y319.801 E2462.92 F1500
G1 Y359.804 E2462.92
G1 X3.4001 Y0 E2508.74 F1500
G1 Y54.4001 E2508.74
G1 X3.4001 Y125.599 E2564.4 F1500
G1 Y234.398 E2564.4
G1 X3.4001 Y305.6 E2675.53 F1500
G1 Y359.804 E2675.53
G1 X3.0001 Y0 E2730.99 F1500
G1 Y359.804 E2730.99
G1 X2.6001 Y0 E3054.78 F1500
G1 Y359.804 E3054.78
G1 X2.2001 Y0 E3335.86 F1500
G1 Y359.804 E3335.86
G1 X1.8001 Y0 E3573.69 F1500
G1 Y359.804 E3573.69
G1 X1.4001 Y0 E3768.28 F1500
G1 Y359.804 E3768.28
G1 X1.0001 Y0 E3919.63 F1500
G1 Y359.804 E3919.63
G1 X0.6001 Y0 E4027.73 F1500
G1 Y359.804 E4027.73
G1 X0.2001 Y0 E4092.6 F1500
G1 Y359.804 E4092.6
G1 X0 Y0 Z0.6
G1 X5.0001 Y0 E4114.22 F1500
G1 Y2.6 E4114.22
G1 X5.0001 Y177.398 E4118.42 F1500
G1 Y182.598 E4118.42
G1 X5.0001 Y357.403 E4126.52 F1500
G1 Y359.804 E4126.52
G1 X4.6001 Y0 E4130.42 F1500
G1 Y18.8 E4130.42
G1 X4.6001 Y161.199 E4156.63 F1500
G1 Y198.798 E4156.63
G1 X4.6001 Y341.202 E4208.79 F1500
G1 Y359.804 E4208.79
G1 X4.2001 Y0 E4234.74 F1500
G1 Y29.2 E4234.74
G1 X4.2001 Y150.799 E4271.77 F1500
G1 Y209.198 E4271.77
G1 X4.2001 Y330.802 E4345.59 F1500
G1 Y359.804 E4345.59
G1 X3.8001 Y0 E4382.38 F1500
G1 Y40.2001 E4382.38
G1 X3.8001 Y139.799 E4428.42 F1500
G1 Y220.198 E4428.42
G1 X3.8001 Y319.801 E4520.28 F1500
G1 Y359.804 E4520.28
G1 X3.4001 Y0 E4566.09 F1500
G1 Y54.4001 E4566.09
G1 X3.4001 Y125.599 E4621.76 F1500
G1 Y234.398 E4621.76
G1 X3.4001 Y305.6 E4732.89 F1500
G1 Y359.804 E4732.89
G1 X3.0001 Y0 E4788.35 F1500
G1 Y359.804 E4788.35
G1 X2.6001 Y0 E5112.14 F1500
G1 Y359.804 E5112.14
G1 X2.2001 Y0 E5392.69 F1500
G1 Y359.804 E5392.69
G1 X1.8001 Y0 E5629.99 F1500
G1 Y359.804 E5629.99
G1 X1.4001 Y0 E5824.05 F1500
G1 Y359.804 E5824.05
G1 X1.0001 Y0 E5974.87 F1500
G1 Y359.804 E5974.87
G1 X0.6001 Y0 E6082.45 F1500
G1 Y359.804 E6082.45
G1 X0.2001 Y0 E6146.79 F1500
G1 Y359.804 E6146.79
G1 X0 Y0 Z0.9
G1 X5.0001 Y0 E6167.88 F1500
G1 Y2.6 E6167.88
G1 X5.0001 Y177.398 E6172.08 F1500
G1 Y182.598 E6172.08
G1 X5.0001 Y357.403 E6180.18 F1500
G1 Y359.804 E6180.18
G1 X4.6001 Y0 E6184.08 F1500
G1 Y18.8 E6184.08
G1 X4.6001 Y161.199 E6210.3 F1500
G1 Y198.798 E6210.3
G1 X4.6001 Y341.202 E6262.46 F1500
G1 Y359.804 E6262.46
G1 X4.2001 Y0 E6288.4 F1500
G1 Y29.2 E6288.4
G1 X4.2001 Y150.799 E6325.44 F1500
G1 Y209.198 E6325.44
G1 X4.2001 Y330.802 E6399.26 F1500
G1 Y359.804 E6399.26
G1 X3.8001 Y0 E6436.04 F1500
G1 Y40.2001 E6436.04
G1 X3.8001 Y139.799 E6482.09 F1500
G1 Y220.198 E6482.09
G1 X3.8001 Y319.801 E6573.94 F1500
G1 Y359.804 E6573.94
G1 X3.4001 Y0 E6619.76 F1500
G1 Y54.4001 E6619.76
G1 X3.4001 Y125.599 E6675.42 F1500
G1 Y234.398 E6675.42
G1 X3.4001 Y305.6 E6786.55 F1500
G1 Y359.804 E6786.55
G1 X3.0001 Y0 E6842.01 F1500
G1 Y359.804 E6842.01
G1 X2.6001 Y0 E7165.8 F1500
G1 Y359.804 E7165.8
G1 X2.2001 Y0 E7446.35 F1500
G1 Y359.804 E7446.35
G1 X1.8001 Y0 E7683.65 F1500
G1 Y359.804 E7683.65
G1 X1.4001 Y0 E7877.72 F1500
G1 Y359.804 E7877.72
G1 X1.0001 Y0 E8028.54 F1500
G1 Y359.804 E8028.54
G1 X0.6001 Y0 E8136.11 F1500
G1 Y359.804 E8136.11
G1 X0.2001 Y0 E8200.45 F1500
G1 Y359.804 E8200.45
G1 X0 Y0 Z1.2
G1 X5.0001 Y0 E8221.54 F1500
G1 Y2.6 E8221.54
G1 X5.0001 Y177.398 E8225.74 F1500
G1 Y182.598 E8225.74
G1 X5.0001 Y357.403 E8233.84 F1500
G1 Y359.804 E8233.84
G1 X4.6001 Y0 E8237.74 F1500
G1 Y18.8 E8237.74
G1 X4.6001 Y161.199 E8263.96 F1500
G1 Y198.798 E8263.96
G1 X4.6001 Y341.202 E8316.12 F1500
G1 Y359.804 E8316.12
G1 X4.2001 Y0 E8342.06 F1500
G1 Y29.2 E8342.06
G1 X4.2001 Y150.799 E8379.1 F1500
G1 Y209.198 E8379.1
G1 X4.2001 Y330.802 E8452.92 F1500
G1 Y359.804 E8452.92
G1 X3.8001 Y0 E8489.71 F1500
G1 Y40.2001 E8489.71
G1 X3.8001 Y139.799 E8535.75 F1500
G1 Y220.198 E8535.75
G1 X3.8001 Y319.801 E8627.61 F1500
G1 Y359.804 E8627.61
G1 X3.4001 Y0 E8673.42 F1500
G1 Y54.4001 E8673.42
G1 X3.4001 Y125.599 E8729.09 F1500
G1 Y234.398 E8729.09
G1 X3.4001 Y305.6 E8840.21 F1500
G1 Y359.804 E8840.21
G1 X3.0001 Y0 E8895.68 F1500
G1 Y359.804 E8895.68
G1 X2.6001 Y0 E9219.47 F1500
G1 Y359.804 E9219.47
G1 X2.2001 Y0 E9500.01 F1500
G1 Y359.804 E9500.01
G1 X1.8001 Y0 E9737.32 F1500
G1 Y359.804 E9737.32
G1 X1.4001 Y0 E9931.38 F1500
G1 Y359.804 E9931.38
G1 X1.0001 Y0 E10083.3 F1500
G1 Y359.804 E10083.3
G1 X0.6001 Y0 E10190.8 F1500
G1 Y359.804 E10190.8
G1 X0.2001 Y0 E10256.2 F1500
G1 Y359.804 E10256.2
G1 X0 Y0 Z1.5
G1 X5.0001 Y0 E10277.3 F1500
G1 Y2.6 E10277.3
G1 X5.0001 Y177.398 E10281.5 F1500
G1 Y182.598 E10281.5
G1 X5.0001 Y357.403 E10289.6 F1500
G1 Y359.804 E10289.6
G1 X4.6001 Y0 E10293.5 F1500
G1 Y18.8 E10293.5
G1 X4.6001 Y161.199 E10319.8 F1500
G1 Y198.798 E10319.8
G1 X4.6001 Y341.202 E10372.1 F1500
G1 Y359.804 E10372.1
G1 X4.2001 Y0 E10398.1 F1500
G1 Y29.2 E10398.1
G1 X4.2001 Y150.799 E10435.1 F1500
G1 Y209.198 E10435.1
G1 X4.2001 Y330.802 E10508.9 F1500
G1 Y359.804 E10508.9
G1 X3.8001 Y0 E10545.7 F1500
G1 Y40.2001 E10545.7
G1 X3.8001 Y139.799 E10591.9 F1500
G1 Y220.198 E10591.9
G1 X3.8001 Y319.801 E10684 F1500
G1 Y359.804 E10684
G1 X3.4001 Y0 E10729.9 F1500
G1 Y54.4001 E10729.9
G1 X3.4001 Y125.599 E10785.6 F1500
G1 Y234.398 E10785.6
G1 X3.4001 Y305.6 E10896.7 F1500
G1 Y359.804 E10896.7
G1 X3.0001 Y0 E10952.1 F1500
G1 Y359.804 E10952.1
G1 X2.6001 Y0 E11277 F1500
G1 Y359.804 E11277
G1 X2.2001 Y0 E11557.5 F1500
G1 Y359.804 E11557.5
G1 X1.8001 Y0 E11795.9 F1500
G1 Y359.804 E11795.9
G1 X1.4001 Y0 E11990 F1500
G1 Y359.804 E11990
G1 X1.0001 Y0 E12141.8 F1500
G1 Y359.804 E12141.8
G1 X0.6001 Y0 E12249.4 F1500
G1 Y359.804 E12249.4
G1 X0.2001 Y0 E12314.8 F1500
G1 Y359.804 E12314.8
G1 X0 Y0 Z1.8
G1 X5.0001 Y0 E12335.9 F1500
G1 Y2.6 E12335.9
G1 X5.0001 Y177.398 E12340.1 F1500
G1 Y182.598 E12340.1
G1 X5.0001 Y357.403 E12348.2 F1500
G1 Y359.804 E12348.2
G1 X4.6001 Y0 E12352.1 F1500
G1 Y18.8 E12352.1
G1 X4.6001 Y161.199 E12378.4 F1500
G1 Y198.798 E12378.4
G1 X4.6001 Y341.202 E12430.6 F1500
G1 Y359.804 E12430.6
G1 X4.2001 Y0 E12456.6 F1500
G1 Y29.2 E12456.6
G1 X4.2001 Y150.799 E12493.7 F1500
G1 Y209.198 E12493.7
G1 X4.2001 Y330.802 E12567.5 F1500
G1 Y359.804 E12567.5
G1 X3.8001 Y0 E12604.3 F1500
G1 Y40.2001 E12604.3
G1 X3.8001 Y139.799 E12650.4 F1500
G1 Y220.198 E12650.4
G1 X3.8001 Y319.801 E12742.5 F1500
G1 Y359.804 E12742.5
G1 X3.4001 Y0 E12788.5 F1500
G1 Y54.4001 E12788.5
G1 X3.4001 Y125.599 E12844.1 F1500
G1 Y234.398 E12844.1
G1 X3.4001 Y305.6 E12955.3 F1500
G1 Y359.804 E12955.3
G1 X3.0001 Y0 E13010.7 F1500
G1 Y359.804 E13010.7
G1 X2.6001 Y0 E13335.6 F1500
G1 Y359.804 E13335.6
G1 X2.2001 Y0 E13616.1 F1500
G1 Y359.804 E13616.1
G1 X1.8001 Y0 E13854.5 F1500
G1 Y359.804 E13854.5
G1 X1.4001 Y0 E14048.5 F1500
G1 Y359.804 E14048.5
G1 X1.0001 Y0 E14200.4 F1500
G1 Y359.804 E14200.4
G1 X0.6001 Y0 E14308 F1500
G1 Y359.804 E14308
G1 X0.2001 Y0 E14373.4 F1500
G1 Y359.804 E14373.4
G1 X0 Y0 Z2.1
G1 X5.0001 Y0 E14394.5 F1500
G1 Y2.6 E14394.5
G1 X5.0001 Y177.398 E14398.7 F1500
G1 Y182.598 E14398.7
G1 X5.0001 Y357.403 E14406.8 F1500
G1 Y359.804 E14406.8
G1 X4.6001 Y0 E14410.7 F1500
G1 Y18.8 E14410.7
G1 X4.6001 Y161.199 E14436.9 F1500
G1 Y198.798 E14436.9
G1 X4.6001 Y341.202 E14489.2 F1500
G1 Y359.804 E14489.2
G1 X4.2001 Y0 E14515.2 F1500
G1 Y29.2 E14515.2
G1 X4.2001 Y150.799 E14552.2 F1500
G1 Y209.198 E14552.2
G1 X4.2001 Y330.802 E14626.1 F1500
G1 Y359.804 E14626.1
G1 X3.8001 Y0 E14662.9 F1500
G1 Y40.2001 E14662.9
G1 X3.8001 Y139.799 E14709 F1500
G1 Y220.198 E14709
G1 X3.8001 Y319.801 E14801.1 F1500
G1 Y359.804 E14801.1
G1 X3.4001 Y0 E14847 F1500
G1 Y54.4001 E14847
G1 X3.4001 Y125.599 E14902.7 F1500
G1 Y234.398 E14902.7
G1 X3.4001 Y305.6 E15013.8 F1500
G1 Y359.804 E15013.8
G1 X3.0001 Y0 E15069.3 F1500
G1 Y359.804 E15069.3
G1 X2.6001 Y0 E15394.1 F1500
G1 Y359.804 E15394.1
G1 X2.2001 Y0 E15674.7 F1500
G1 Y359.804 E15674.7
G1 X1.8001 Y0 E15913 F1500
G1 Y359.804 E15913
G1 X1.4001 Y0 E16107.1 F1500
G1 Y359.804 E16107.1
G1 X1.0001 Y0 E16259 F1500
G1 Y359.804 E16259
G1 X0.6001 Y0 E16366.6 F1500
G1 Y359.804 E16366.6
G1 X0.2001 Y0 E16432 F1500
G1 Y359.804 E16432
G1 X0 Y0 Z2.4
G1 X5.0001 Y0 E16453 F1500
G1 Y2.6 E16453
G1 X5.0001 Y177.398 E16457.2 F1500
G1 Y182.598 E16457.2
G1 X5.0001 Y357.403 E16465.3 F1500
G1 Y359.804 E16465.3
G1 X4.6001 Y0 E16469.2 F1500
G1 Y18.8 E16469.2
G1 X4.6001 Y161.199 E16495.5 F1500
G1 Y198.798 E16495.5
G1 X4.6001 Y341.202 E16547.8 F1500
G1 Y359.804 E16547.8
G1 X4.2001 Y0 E16573.8 F1500
G1 Y29.2 E16573.8
G1 X4.2001 Y150.799 E16610.8 F1500
G1 Y209.198 E16610.8
G1 X4.2001 Y330.802 E16684.6 F1500
G1 Y359.804 E16684.6
G1 X3.8001 Y0 E16721.4 F1500
G1 Y40.2001 E16721.4
G1 X3.8001 Y139.799 E16767.6 F1500
G1 Y220.198 E16767.6
G1 X3.8001 Y319.801 E16859.7 F1500
G1 Y359.804 E16859.7
G1 X3.4001 Y0 E16905.6 F1500
G1 Y54.4001 E16905.6
G1 X3.4001 Y125.599 E16961.3 F1500
G1 Y234.398 E16961.3
G1 X3.4001 Y305.6 E17072.4 F1500
G1 Y359.804 E17072.4
G1 X3.0001 Y0 E17127.9 F1500
G1 Y359.804 E17127.9
G1 X2.6001 Y0 E17452.7 F1500
G1 Y359.804 E17452.7
G1 X2.2001 Y0 E17733.3 F1500
G1 Y359.804 E17733.3
G1 X1.8001 Y0 E17971.6 F1500
G1 Y359.804 E17971.6
G1 X1.4001 Y0 E18165.7 F1500
G1 Y359.804 E18165.7
G1 X1.0001 Y0 E18317.6 F1500
G1 Y359.804 E18317.6
G1 X0.6001 Y0 E18425.1 F1500
G1 Y359.804 E18425.1
G1 X0.2001 Y0 E18490.5 F1500
G1 Y359.804 E18490.5
G1 X0 Y0 Z2.7
G1 X5.0001 Y0 E18511.6 F1500
G1 Y2.6 E18511.6
G1 X5.0001 Y177.398 E18515.8 F1500
G1 Y182.598 E18515.8
G1 X5.0001 Y357.403 E18523.9 F1500
G1 Y359.804 E18523.9
G1 X4.6001 Y0 E18527.8 F1500
G1 Y18.8 E18527.8
G1 X4.6001 Y161.199 E18554.1 F1500
G1 Y198.798 E18554.1
G1 X4.6001 Y341.202 E18606.4 F1500
G1 Y359.804 E18606.4
G1 X4.2001 Y0 E18632.4 F1500
G1 Y29.2 E18632.4
G1 X4.2001 Y150.799 E18669.4 F1500
G1 Y209.198 E18669.4
G1 X4.2001 Y330.802 E18743.2 F1500
G1 Y359.804 E18743.2
G1 X3.8001 Y0 E18780 F1500
G1 Y40.2001 E18780
G1 X3.8001 Y139.799 E18826.2 F1500
G1 Y220.198 E18826.2
G1 X3.8001 Y319.801 E18918.3 F1500
G1 Y359.804 E18918.3
G1 X3.4001 Y0 E18964.2 F1500
G1 Y54.4001 E18964.2
G1 X3.4001 Y125.599 E19019.9 F1500
G1 Y234.398 E19019.9
G1 X3.4001 Y305.6 E19131 F1500
G1 Y359.804 E19131
G1 X3.0001 Y0 E19186.5 F1500
G1 Y359.804 E19186.5
G1 X2.6001 Y0 E19511.3 F1500
G1 Y359.804 E19511.3
G1 X2.2001 Y0 E19792.8 F1500
G1 Y359.804 E19792.8
G1 X1.8001 Y0 E20029.1 F1500
G1 Y359.804 E20029.1
G1 X1.4001 Y0 E20223.1 F1500
G1 Y359.804 E20223.1
G1 X1.0001 Y0 E20375 F1500
G1 Y359.804 E20375
G1 X0.6001 Y0 E20484.7 F1500
G1 Y359.804 E20484.7
G1 X0.2001 Y0 E20548 F1500
G1 Y359.804 E20548
G1 X0 Y0 Z3
G1 X5.0001 Y0 E20569.1 F1500
G1 Y2.6 E20569.1
G1 X5.0001 Y177.398 E20573.3 F1500
G1 Y182.598 E20573.3
G1 X5.0001 Y357.403 E20581.4 F1500
G1 Y359.804 E20581.4
G1 X4.6001 Y0 E20585.3 F1500
G1 Y18.8 E20585.3
G1 X4.6001 Y161.199 E20611.5 F1500
G1 Y198.798 E20611.5
G1 X4.6001 Y341.202 E20663.8 F1500
G1 Y359.804 E20663.8
G1 X4.2001 Y0 E20689.8 F1500
G1 Y29.2 E20689.8
G1 X4.2001 Y150.799 E20727 F1500
G1 Y209.198 E20727
G1 X4.2001 Y330.802 E20801.2 F1500
G1 Y359.804 E20801.2
G1 X3.8001 Y0 E20838.1 F1500
G1 Y40.2001 E20838.1
G1 X3.8001 Y139.799 E20884.1 F1500
G1 Y220.198 E20884.1
G1 X3.8001 Y319.801 E20975.7 F1500
G1 Y359.804 E20975.7
G1 X3.4001 Y0 E21021.4 F1500
G1 Y54.4001 E21021.4
G1 X3.4001 Y125.599 E21077.1 F1500
G1 Y234.398 E21077.1
G1 X3.4001 Y305.6 E21188.2 F1500
G1 Y359.804 E21188.2
G1 X3.0001 Y0 E21243.6 F1500
G1 Y359.804 E21243.6
G1 X2.6001 Y0 E21568.5 F1500
G1 Y359.804 E21568.5
G1 X2.2001 Y0 E21851.1 F1500
G1 Y359.804 E21851.1
G1 X1.8001 Y0 E22087.4 F1500
G1 Y359.804 E22087.4
G1 X1.4001 Y0 E22281.5 F1500
G1 Y359.804 E22281.5
G1 X1.0001 Y0 E22433.3 F1500
G1 Y359.804 E22433.3
G1 X0.6001 Y0 E22543 F1500
G1 Y359.804 E22543
G1 X0.2001 Y0 E22606.3 F1500
G1 Y359.804 E22606.3
G1 X0 Y0 Z3.3
G1 X5.0001 Y0 E22627.4 F1500
G1 Y2.6 E22627.4
G1 X5.0001 Y177.398 E22631.6 F1500
G1 Y182.598 E22631.6
G1 X5.0001 Y357.403 E22639.7 F1500
G1 Y359.804 E22639.7
G1 X4.6001 Y0 E22643.6 F1500
G1 Y18.8 E22643.6
G1 X4.6001 Y161.199 E22669.9 F1500
G1 Y198.798 E22669.9
G1 X4.6001 Y341.202 E22722.1 F1500
G1 Y359.804 E22722.1
G1 X4.2001 Y0 E22748.1 F1500
G1 Y29.2 E22748.1
G1 X4.2001 Y150.799 E22785.3 F1500
G1 Y209.198 E22785.3
G1 X4.2001 Y330.802 E22859.5 F1500
G1 Y359.804 E22859.5
G1 X3.8001 Y0 E22896.5 F1500
G1 Y40.2001 E22896.5
G1 X3.8001 Y139.799 E22942.4 F1500
G1 Y220.198 E22942.4
G1 X3.8001 Y319.801 E23034 F1500
G1 Y359.804 E23034
G1 X3.4001 Y0 E23079.7 F1500
G1 Y54.4001 E23079.7
G1 X3.4001 Y125.599 E23135.4 F1500
G1 Y234.398 E23135.4
G1 X3.4001 Y305.6 E23246.5 F1500
G1 Y359.804 E23246.5
G1 X3.0001 Y0 E23302 F1500
G1 Y359.804 E23302
G1 X2.6001 Y0 E23626.8 F1500
G1 Y359.804 E23626.8
G1 X2.2001 Y0 E23909.5 F1500
G1 Y359.804 E23909.5
G1 X1.8001 Y0 E24145.7 F1500
G1 Y359.804 E24145.7
G1 X1.4001 Y0 E24339.8 F1500
G1 Y359.804 E24339.8
G1 X1.0001 Y0 E24491.7 F1500
G1 Y359.804 E24491.7
G1 X0.6001 Y0 E24601.3 F1500
G1 Y359.804 E24601.3
G1 X0.2001 Y0 E24664.6 F1500
G1 Y359.804 E24664.6
G1 X0 Y0 Z3.6
G1 X5.0001 Y0 E24685.7 F1500
G1 Y2.6 E24685.7
G1 X5.0001 Y177.398 E24689.9 F1500
G1 Y182.598 E24689.9
G1 X5.0001 Y357.403 E24698 F1500
G1 Y359.804 E24698
G1 X4.6001 Y0 E24701.9 F1500
G1 Y18.8 E24701.9
G1 X4.6001 Y161.199 E24728.2 F1500
G1 Y198.798 E24728.2
G1 X4.6001 Y341.202 E24780.5 F1500
G1 Y359.804 E24780.5
G1 X4.2001 Y0 E24806.5 F1500
G1 Y29.2 E24806.5
G1 X4.2001 Y150.799 E24843.7 F1500
G1 Y209.198 E24843.7
G1 X4.2001 Y330.802 E24917.8 F1500
G1 Y359.804 E24917.8
G1 X3.8001 Y0 E24954.8 F1500
G1 Y40.2001 E24954.8
G1 X3.8001 Y139.799 E25000.7 F1500
G1 Y220.198 E25000.7
G1 X3.8001 Y319.801 E25092.3 F1500
G1 Y359.804 E25092.3
G1 X3.4001 Y0 E25138 F1500
G1 Y54.4001 E25138
G1 X3.4001 Y125.599 E25193.7 F1500
G1 Y234.398 E25193.7
G1 X3.4001 Y305.6 E25304.8 F1500
G1 Y359.804 E25304.8
G1 X3.0001 Y0 E25360.3 F1500
G1 Y359.804 E25360.3
G1 X2.6001 Y0 E25685.1 F1500
G1 Y359.804 E25685.1
G1 X2.2001 Y0 E25967.8 F1500
G1 Y359.804 E25967.8
G1 X1.8001 Y0 E26204 F1500
G1 Y359.804 E26204
G1 X1.4001 Y0 E26398.1 F1500
G1 Y359.804 E26398.1
G1 X1.0001 Y0 E26550 F1500
G1 Y359.804 E26550
G1 X0.6001 Y0 E26659.7 F1500
G1 Y359.804 E26659.7
G1 X0.2001 Y0 E26722.9 F1500
G1 Y359.804 E26722.9
G1 X0 Y0 Z3.9
