; generated by slicer at 2016-04-06 11:57:18
G1 X0 Y0 Z0
G1 X1.0001 Y0
G1 Y0.00436332
G1 Y0.00872665
G1 Y0.01309
G1 X1.0001 Y0.776672
G1 Y0.781035
G1 Y0.785398
G1 Y0.789761
G1 Y0.794125
G1 X1.0001 Y1.55771
G1 Y1.56207
G1 Y1.56643
G1 Y1.5708
G1 Y1.57516
G1 Y1.57952
G1 X1.0001 Y3.13287
G1 Y3.13723
G1 Y3.14159
G1 Y3.14596
G1 Y3.15032
G1 Y3.15468
G1 Y3.15905
G1 Y3.16341
G1 Y3.16777
G1 X1.0001 Y3.90081
G1 Y3.90517
G1 Y3.90954
G1 Y3.9139
G1 Y3.91826
G1 Y3.92263
G1 Y3.92699
G1 Y3.93135
G1 Y3.93572
G1 X1.0001 Y4.70366
G1 Y4.70803
G1 Y4.71239
G1 Y4.71675
G1 Y4.72112
G1 X0.9901 Y0
G1 Y0.00436332
G1 Y0.00872665
G1 Y0.01309
G1 Y0.0174533
G1 Y0.0218166
G1 X0.9901 Y0.772308
G1 Y0.776672
G1 Y0.781035
G1 Y0.785398
G1 Y0.789761
G1 Y0.794125
G1 X0.9901 Y1.54898
G1 Y1.55334
G1 Y1.55771
G1 Y1.56207
G1 Y1.56643
G1 Y1.5708
G1 Y1.57516
G1 Y1.57952
G1 X0.9901 Y3.13287
G1 Y3.13723
G1 Y3.14159
G1 Y3.14596
G1 Y3.15032
G1 Y3.15468
G1 Y3.15905
G1 Y3.16341
G1 Y3.16777
G1 Y3.17214
G1 Y3.1765
G1 Y3.18086
G1 Y3.18523
G1 Y3.18959
G1 Y3.19395
G1 X0.9901 Y3.87463
G1 Y3.87899
G1 Y3.88336
G1 Y3.88772
G1 Y3.89208
G1 Y3.89645
G1 Y3.90081
G1 Y3.90517
G1 Y3.90954
G1 Y3.9139
G1 Y3.91826
G1 Y3.92263
G1 Y3.92699
G1 Y3.93135
G1 Y3.93572
G1 X0.9901 Y4.70366
G1 Y4.70803
G1 Y4.71239
G1 Y4.71675
G1 Y4.72112
G1 Y4.72548
G1 X0.9801 Y0
G1 Y0.00436332
G1 Y0.00872665
G1 Y0.01309
G1 Y0.0174533
G1 Y0.0218166
G1 Y0.0261799
G1 Y0.0305433
G1 Y0.0349066
G1 X0.9801 Y0.767945
G1 Y0.772308
G1 Y0.776672
G1 Y0.781035
G1 Y0.785398
G1 Y0.789761
G1 Y0.794125
G1 X0.9801 Y1.53589
G1 Y1.54025
G1 Y1.54462
G1 Y1.54898
G1 Y1.55334
G1 Y1.55771
G1 Y1.56207
G1 Y1.56643
G1 Y1.5708
G1 Y1.57516
G1 Y1.57952
G1 X0.9801 Y3.13287
G1 Y3.13723
G1 Y3.14159
G1 Y3.14596
G1 Y3.15032
G1 Y3.15468
G1 Y3.15905
G1 Y3.16341
G1 Y3.16777
G1 Y3.17214
G1 Y3.1765
G1 Y3.18086
G1 Y3.18523
G1 Y3.18959
G1 Y3.19395
G1 Y3.19832
G1 Y3.20268
G1 Y3.20704
G1 Y3.21141
G1 Y3.21577
G1 Y3.22013
G1 Y3.2245
G1 X0.9801 Y3.84409
G1 Y3.84845
G1 Y3.85281
G1 Y3.85718
G1 Y3.86154
G1 Y3.8659
G1 Y3.87027
G1 Y3.87463
G1 Y3.87899
G1 Y3.88336
G1 Y3.88772
G1 Y3.89208
G1 Y3.89645
G1 Y3.90081
G1 Y3.90517
G1 Y3.90954
G1 Y3.9139
G1 Y3.91826
G1 Y3.92263
G1 Y3.92699
G1 Y3.93135
G1 Y3.93572
G1 X0.9801 Y4.70366
G1 Y4.70803
G1 Y4.71239
G1 Y4.71675
G1 Y4.72112
G1 Y4.72548
G1 Y4.72984
G1 X0.9701 Y0
G1 Y0.00436332
G1 Y0.00872665
G1 Y0.01309
G1 Y0.0174533
G1 Y0.0218166
G1 Y0.0261799
G1 Y0.0305433
G1 Y0.0349066
G1 Y0.0392699
G1 Y0.0436332
G1 X0.9701 Y0.763582
G1 Y0.767945
G1 Y0.772308
G1 Y0.776672
G1 Y0.781035
G1 Y0.785398
G1 Y0.789761
G1 Y0.794125
G1 X0.9701 Y1.52716
G1 Y1.53153
G1 Y1.53589
G1 Y1.54025
G1 Y1.54462
G1 Y1.54898
G1 Y1.55334
G1 Y1.55771
G1 Y1.56207
G1 Y1.56643
G1 Y1.5708
G1 Y1.57516
G1 Y1.57952
G1 X0.9701 Y3.13287
G1 Y3.13723
G1 Y3.14159
G1 Y3.14596
G1 Y3.15032
G1 Y3.15468
G1 Y3.15905
G1 Y3.16341
G1 Y3.16777
G1 Y3.17214
G1 Y3.1765
G1 Y3.18086
G1 Y3.18523
G1 Y3.18959
G1 Y3.19395
G1 Y3.19832
G1 Y3.20268
G1 Y3.20704
G1 Y3.21141
G1 Y3.21577
G1 Y3.22013
G1 Y3.2245
G1 Y3.22886
G1 Y3.23322
G1 Y3.23759
G1 Y3.24195
G1 Y3.24631
G1 Y3.25068
G1 Y3.25504
G1 Y3.2594
G1 X0.9701 Y3.80918
G1 Y3.81354
G1 Y3.81791
G1 Y3.82227
G1 Y3.82663
G1 Y3.831
G1 Y3.83536
G1 Y3.83972
G1 Y3.84409
G1 Y3.84845
G1 Y3.85281
G1 Y3.85718
G1 Y3.86154
G1 Y3.8659
G1 Y3.87027
G1 Y3.87463
G1 Y3.87899
G1 Y3.88336
G1 Y3.88772
G1 Y3.89208
G1 Y3.89645
G1 Y3.90081
G1 Y3.90517
G1 Y3.90954
G1 Y3.9139
G1 Y3.91826
G1 Y3.92263
G1 Y3.92699
G1 Y3.93135
G1 Y3.93572
G1 X0.9701 Y4.70366
G1 Y4.70803
G1 Y4.71239
G1 Y4.71675
G1 Y4.72112
G1 Y4.72548
G1 Y4.72984
G1 Y4.73421
G1 X0.9601 Y0
G1 Y0.00436332
G1 Y0.00872665
G1 Y0.01309
G1 Y0.0174533
G1 Y0.0218166
G1 Y0.0261799
G1 Y0.0305433
G1 Y0.0349066
G1 Y0.0392699
G1 Y0.0436332
G1 Y0.0479966
G1 Y0.0523599
G1 Y0.0567232
G1 X0.9601 Y0.759218
G1 Y0.763582
G1 Y0.767945
G1 Y0.772308
G1 Y0.776672
G1 Y0.781035
G1 Y0.785398
G1 Y0.789761
G1 Y0.794125
G1 X0.9601 Y1.51407
G1 Y1.51844
G1 Y1.5228
G1 Y1.52716
G1 Y1.53153
G1 Y1.53589
G1 Y1.54025
G1 Y1.54462
G1 Y1.54898
G1 Y1.55334
G1 Y1.55771
G1 Y1.56207
G1 Y1.56643
G1 Y1.5708
G1 Y1.57516
G1 Y1.57952
G1 X0.9601 Y3.13287
G1 Y3.13723
G1 Y3.14159
G1 Y3.14596
G1 Y3.15032
G1 Y3.15468
G1 Y3.15905
G1 Y3.16341
G1 Y3.16777
G1 Y3.17214
G1 Y3.1765
G1 Y3.18086
G1 Y3.18523
G1 Y3.18959
G1 Y3.19395
G1 Y3.19832
G1 Y3.20268
G1 Y3.20704
G1 Y3.21141
G1 Y3.21577
G1 Y3.22013
G1 Y3.2245
G1 Y3.22886
G1 Y3.23322
G1 Y3.23759
G1 Y3.24195
G1 Y3.24631
G1 Y3.25068
G1 Y3.25504
G1 Y3.2594
G1 Y3.26377
G1 Y3.26813
G1 Y3.27249
G1 Y3.27686
G1 Y3.28122
G1 Y3.28558
G1 Y3.28995
G1 Y3.29431
G1 Y3.29867
G1 X0.9601 Y3.76991
G1 Y3.77427
G1 Y3.77864
G1 Y3.783
G1 Y3.78736
G1 Y3.79173
G1 Y3.79609
G1 Y3.80045
G1 Y3.80482
G1 Y3.80918
G1 Y3.81354
G1 Y3.81791
G1 Y3.82227
G1 Y3.82663
G1 Y3.831
G1 Y3.83536
G1 Y3.83972
G1 Y3.84409
G1 Y3.84845
G1 Y3.85281
G1 Y3.85718
G1 Y3.86154
G1 Y3.8659
G1 Y3.87027
G1 Y3.87463
G1 Y3.87899
G1 Y3.88336
G1 Y3.88772
G1 Y3.89208
G1 Y3.89645
G1 Y3.90081
G1 Y3.90517
G1 Y3.90954
G1 Y3.9139
G1 Y3.91826
G1 Y3.92263
G1 Y3.92699
G1 Y3.93135
G1 Y3.93572
G1 X0.9601 Y4.70366
G1 Y4.70803
G1 Y4.71239
G1 Y4.71675
G1 Y4.72112
G1 Y4.72548
G1 Y4.72984
G1 Y4.73421
G1 Y4.73857
G1 X0.9501 Y0
G1 Y0.00436332
G1 Y0.00872665
G1 Y0.01309
G1 Y0.0174533
G1 Y0.0218166
G1 Y0.0261799
G1 Y0.0305433
G1 Y0.0349066
G1 Y0.0392699
G1 Y0.0436332
G1 Y0.0479966
G1 Y0.0523599
G1 Y0.0567232
G1 Y0.0610865
G1 Y0.0654498
G1 Y0.0698132
G1 X0.9501 Y0.754855
G1 Y0.759218
G1 Y0.763582
G1 Y0.767945
G1 Y0.772308
G1 Y0.776672
G1 Y0.781035
G1 Y0.785398
G1 Y0.789761
G1 Y0.794125
G1 X0.9501 Y1.50098
G1 Y1.50535
G1 Y1.50971
G1 Y1.51407
G1 Y1.51844
G1 Y1.5228
G1 Y1.52716
G1 Y1.53153
G1 Y1.53589
G1 Y1.54025
G1 Y1.54462
G1 Y1.54898
G1 Y1.55334
G1 Y1.55771
G1 Y1.56207
G1 Y1.56643
G1 Y1.5708
G1 Y1.57516
G1 Y1.57952
G1 X0.9501 Y3.13287
G1 Y3.13723
G1 Y3.14159
G1 Y3.14596
G1 Y3.15032
G1 Y3.15468
G1 Y3.15905
G1 Y3.16341
G1 Y3.16777
G1 Y3.17214
G1 Y3.1765
G1 Y3.18086
G1 Y3.18523
G1 Y3.18959
G1 Y3.19395
G1 Y3.19832
G1 Y3.20268
G1 Y3.20704
G1 Y3.21141
G1 Y3.21577
G1 Y3.22013
G1 Y3.2245
G1 Y3.22886
G1 Y3.23322
G1 Y3.23759
G1 Y3.24195
G1 Y3.24631
G1 Y3.25068
G1 Y3.25504
G1 Y3.2594
G1 Y3.26377
G1 Y3.26813
G1 Y3.27249
G1 Y3.27686
G1 Y3.28122
G1 Y3.28558
G1 Y3.28995
G1 Y3.29431
G1 Y3.29867
G1 Y3.30304
G1 Y3.3074
G1 Y3.31176
G1 Y3.31613
G1 Y3.32049
G1 Y3.32485
G1 Y3.32922
G1 Y3.33358
G1 Y3.33794
G1 Y3.34231
G1 Y3.34667
G1 X0.9501 Y3.72191
G1 Y3.72628
G1 Y3.73064
G1 Y3.735
G1 Y3.73937
G1 Y3.74373
G1 Y3.74809
G1 Y3.75246
G1 Y3.75682
G1 Y3.76118
G1 Y3.76555
G1 Y3.76991
G1 Y3.77427
G1 Y3.77864
G1 Y3.783
G1 Y3.78736
G1 Y3.79173
G1 Y3.79609
G1 Y3.80045
G1 Y3.80482
G1 Y3.80918
G1 Y3.81354
G1 Y3.81791
G1 Y3.82227
G1 Y3.82663
G1 Y3.831
G1 Y3.83536
G1 Y3.83972
G1 Y3.84409
G1 Y3.84845
G1 Y3.85281
G1 Y3.85718
G1 Y3.86154
G1 Y3.8659
G1 Y3.87027
G1 Y3.87463
G1 Y3.87899
G1 Y3.88336
G1 Y3.88772
G1 Y3.89208
G1 Y3.89645
G1 Y3.90081
G1 Y3.90517
G1 Y3.90954
G1 Y3.9139
G1 Y3.91826
G1 Y3.92263
G1 Y3.92699
G1 Y3.93135
G1 Y3.93572
G1 X0.9501 Y4.70366
G1 Y4.70803
G1 Y4.71239
G1 Y4.71675
G1 Y4.72112
G1 Y4.72548
G1 Y4.72984
G1 Y4.73421
G1 Y4.73857
G1 Y4.74293
G1 X0.9401 Y0
G1 Y0.00436332
G1 Y0.00872665
G1 Y0.01309
G1 Y0.0174533
G1 Y0.0218166
G1 Y0.0261799
G1 Y0.0305433
G1 Y0.0349066
G1 Y0.0392699
G1 Y0.0436332
G1 Y0.0479966
G1 Y0.0523599
G1 Y0.0567232
G1 Y0.0610865
G1 Y0.0654498
G1 Y0.0698132
G1 Y0.0741765
G1 Y0.0785398
G1 X0.9401 Y0.750492
G1 Y0.754855
G1 Y0.759218
G1 Y0.763582
G1 Y0.767945
G1 Y0.772308
G1 Y0.776672
G1 Y0.781035
G1 Y0.785398
G1 Y0.789761
G1 Y0.794125
G1 X0.9401 Y1.49226
G1 Y1.49662
G1 Y1.50098
G1 Y1.50535
G1 Y1.50971
G1 Y1.51407
G1 Y1.51844
G1 Y1.5228
G1 Y1.52716
G1 Y1.53153
G1 Y1.53589
G1 Y1.54025
G1 Y1.54462
G1 Y1.54898
G1 Y1.55334
G1 Y1.55771
G1 Y1.56207
G1 Y1.56643
G1 Y1.5708
G1 Y1.57516
G1 Y1.57952
G1 X0.9401 Y3.13287
G1 Y3.13723
G1 Y3.14159
G1 Y3.14596
G1 Y3.15032
G1 Y3.15468
G1 Y3.15905
G1 Y3.16341
G1 Y3.16777
G1 Y3.17214
G1 Y3.1765
G1 Y3.18086
G1 Y3.18523
G1 Y3.18959
G1 Y3.19395
G1 Y3.19832
G1 Y3.20268
G1 Y3.20704
G1 Y3.21141
G1 Y3.21577
G1 Y3.22013
G1 Y3.2245
G1 Y3.22886
G1 Y3.23322
G1 Y3.23759
G1 Y3.24195
G1 Y3.24631
G1 Y3.25068
G1 Y3.25504
G1 Y3.2594
G1 Y3.26377
G1 Y3.26813
G1 Y3.27249
G1 Y3.27686
G1 Y3.28122
G1 Y3.28558
G1 Y3.28995
G1 Y3.29431
G1 Y3.29867
G1 Y3.30304
G1 Y3.3074
G1 Y3.31176
G1 Y3.31613
G1 Y3.32049
G1 Y3.32485
G1 Y3.32922
G1 Y3.33358
G1 Y3.33794
G1 Y3.34231
G1 Y3.34667
G1 Y3.35103
G1 Y3.3554
G1 Y3.35976
G1 Y3.36412
G1 Y3.36849
G1 Y3.37285
G1 Y3.37721
G1 Y3.38158
G1 Y3.38594
G1 Y3.3903
G1 Y3.39467
G1 Y3.39903
G1 Y3.40339
G1 Y3.40776
G1 Y3.41212
G1 Y3.41648
G1 X0.9401 Y3.6521
G1 Y3.65646
G1 Y3.66083
G1 Y3.66519
G1 Y3.66955
G1 Y3.67392
G1 Y3.67828
G1 Y3.68264
G1 Y3.68701
G1 Y3.69137
G1 Y3.69573
G1 Y3.7001
G1 Y3.70446
G1 Y3.70882
G1 Y3.71319
G1 Y3.71755
G1 Y3.72191
G1 Y3.72628
G1 Y3.73064
G1 Y3.735
G1 Y3.73937
G1 Y3.74373
G1 Y3.74809
G1 Y3.75246
G1 Y3.75682
G1 Y3.76118
G1 Y3.76555
G1 Y3.76991
G1 Y3.77427
G1 Y3.77864
G1 Y3.783
G1 Y3.78736
G1 Y3.79173
G1 Y3.79609
G1 Y3.80045
G1 Y3.80482
G1 Y3.80918
G1 Y3.81354
G1 Y3.81791
G1 Y3.82227
G1 Y3.82663
G1 Y3.831
G1 Y3.83536
G1 Y3.83972
G1 Y3.84409
G1 Y3.84845
G1 Y3.85281
G1 Y3.85718
G1 Y3.86154
G1 Y3.8659
G1 Y3.87027
G1 Y3.87463
G1 Y3.87899
G1 Y3.88336
G1 Y3.88772
G1 Y3.89208
G1 Y3.89645
G1 Y3.90081
G1 Y3.90517
G1 Y3.90954
G1 Y3.9139
G1 Y3.91826
G1 Y3.92263
G1 Y3.92699
G1 Y3.93135
G1 Y3.93572
G1 X0.9401 Y4.70366
G1 Y4.70803
G1 Y4.71239
G1 Y4.71675
G1 Y4.72112
G1 Y4.72548
G1 Y4.72984
G1 Y4.73421
G1 Y4.73857
G1 Y4.74293
G1 Y4.7473
G1 X0.9301 Y0
G1 Y0.00436332
G1 Y0.00872665
G1 Y0.01309
G1 Y0.0174533
G1 Y0.0218166
G1 Y0.0261799
G1 Y0.0305433
G1 Y0.0349066
G1 Y0.0392699
G1 Y0.0436332
G1 Y0.0479966
G1 Y0.0523599
G1 Y0.0567232
G1 Y0.0610865
G1 Y0.0654498
G1 Y0.0698132
G1 Y0.0741765
G1 Y0.0785398
G1 Y0.0829031
G1 Y0.0872665
G1 Y0.0916298
G1 X0.9301 Y0.746128
G1 Y0.750492
G1 Y0.754855
G1 Y0.759218
G1 Y0.763582
G1 Y0.767945
G1 Y0.772308
G1 Y0.776672
G1 Y0.781035
G1 Y0.785398
G1 Y0.789761
G1 Y0.794125
G1 X0.9301 Y1.47917
G1 Y1.48353
G1 Y1.48789
G1 Y1.49226
G1 Y1.49662
G1 Y1.50098
G1 Y1.50535
G1 Y1.50971
G1 Y1.51407
G1 Y1.51844
G1 Y1.5228
G1 Y1.52716
G1 Y1.53153
G1 Y1.53589
G1 Y1.54025
G1 Y1.54462
G1 Y1.54898
G1 Y1.55334
G1 Y1.55771
G1 Y1.56207
G1 Y1.56643
G1 Y1.5708
G1 Y1.57516
G1 Y1.57952
G1 X0.9301 Y3.13287
G1 Y3.13723
G1 Y3.14159
G1 Y3.14596
G1 Y3.15032
G1 Y3.15468
G1 Y3.15905
G1 Y3.16341
G1 Y3.16777
G1 Y3.17214
G1 Y3.1765
G1 Y3.18086
G1 Y3.18523
G1 Y3.18959
G1 Y3.19395
G1 Y3.19832
G1 Y3.20268
G1 Y3.20704
G1 Y3.21141
G1 Y3.21577
G1 Y3.22013
G1 Y3.2245
G1 Y3.22886
G1 Y3.23322
G1 Y3.23759
G1 Y3.24195
G1 Y3.24631
G1 Y3.25068
G1 Y3.25504
G1 Y3.2594
G1 Y3.26377
G1 Y3.26813
G1 Y3.27249
G1 Y3.27686
G1 Y3.28122
G1 Y3.28558
G1 Y3.28995
G1 Y3.29431
G1 Y3.29867
G1 Y3.30304
G1 Y3.3074
G1 Y3.31176
G1 Y3.31613
G1 Y3.32049
G1 Y3.32485
G1 Y3.32922
G1 Y3.33358
G1 Y3.33794
G1 Y3.34231
G1 Y3.34667
G1 Y3.35103
G1 Y3.3554
G1 Y3.35976
G1 Y3.36412
G1 Y3.36849
G1 Y3.37285
G1 Y3.37721
G1 Y3.38158
G1 Y3.38594
G1 Y3.3903
G1 Y3.39467
G1 Y3.39903
G1 Y3.40339
G1 Y3.40776
G1 Y3.41212
G1 Y3.41648
G1 Y3.42085
G1 Y3.42521
G1 Y3.42957
G1 Y3.43394
G1 Y3.4383
G1 Y3.44266
G1 Y3.44703
G1 Y3.45139
G1 Y3.45575
G1 Y3.46012
G1 Y3.46448
G1 Y3.46884
G1 Y3.47321
G1 Y3.47757
G1 Y3.48193
G1 Y3.4863
G1 Y3.49066
G1 Y3.49502
G1 Y3.49939
G1 Y3.50375
G1 Y3.50811
G1 Y3.51248
G1 Y3.51684
G1 Y3.5212
G1 Y3.52557
G1 Y3.52993
G1 Y3.53429
G1 Y3.53866
G1 Y3.54302
G1 Y3.54738
G1 Y3.55175
G1 Y3.55611
G1 Y3.56047
G1 Y3.56483
G1 Y3.5692
G1 Y3.57356
G1 Y3.57792
G1 Y3.58229
G1 Y3.58665
G1 Y3.59101
G1 Y3.59538
G1 Y3.59974
G1 Y3.6041
G1 Y3.60847
G1 Y3.61283
G1 Y3.61719
G1 Y3.62156
G1 Y3.62592
G1 Y3.63028
G1 Y3.63465
G1 Y3.63901
G1 Y3.64337
G1 Y3.64774
G1 Y3.6521
G1 Y3.65646
G1 Y3.66083
G1 Y3.66519
G1 Y3.66955
G1 Y3.67392
G1 Y3.67828
G1 Y3.68264
G1 Y3.68701
G1 Y3.69137
G1 Y3.69573
G1 Y3.7001
G1 Y3.70446
G1 Y3.70882
G1 Y3.71319
G1 Y3.71755
G1 Y3.72191
G1 Y3.72628
G1 Y3.73064
G1 Y3.735
G1 Y3.73937
G1 Y3.74373
G1 Y3.74809
G1 Y3.75246
G1 Y3.75682
G1 Y3.76118
G1 Y3.76555
G1 Y3.76991
G1 Y3.77427
G1 Y3.77864
G1 Y3.783
G1 Y3.78736
G1 Y3.79173
G1 Y3.79609
G1 Y3.80045
G1 Y3.80482
G1 Y3.80918
G1 Y3.81354
G1 Y3.81791
G1 Y3.82227
G1 Y3.82663
G1 Y3.831
G1 Y3.83536
G1 Y3.83972
G1 Y3.84409
G1 Y3.84845
G1 Y3.85281
G1 Y3.85718
G1 Y3.86154
G1 Y3.8659
G1 Y3.87027
G1 Y3.87463
G1 Y3.87899
G1 Y3.88336
G1 Y3.88772
G1 Y3.89208
G1 Y3.89645
G1 Y3.90081
G1 Y3.90517
G1 Y3.90954
G1 Y3.9139
G1 Y3.91826
G1 Y3.92263
G1 Y3.92699
G1 Y3.93135
G1 Y3.93572
G1 X0.9301 Y4.70366
G1 Y4.70803
G1 Y4.71239
G1 Y4.71675
G1 Y4.72112
G1 Y4.72548
G1 Y4.72984
G1 Y4.73421
G1 Y4.73857
G1 Y4.74293
G1 Y4.7473
G1 Y4.75166
G1 X0.9201 Y0
G1 Y0.00436332
G1 Y0.00872665
G1 Y0.01309
G1 Y0.0174533
G1 Y0.0218166
G1 Y0.0261799
G1 Y0.0305433
G1 Y0.0349066
G1 Y0.0392699
G1 Y0.0436332
G1 Y0.0479966
G1 Y0.0523599
G1 Y0.0567232
G1 Y0.0610865
G1 Y0.0654498
G1 Y0.0698132
G1 Y0.0741765
G1 Y0.0785398
G1 Y0.0829031
G1 Y0.0872665
G1 Y0.0916298
G1 Y0.0959931
G1 Y0.100356
G1 Y0.10472
G1 X0.9201 Y0.737402
G1 Y0.741765
G1 Y0.746128
G1 Y0.750492
G1 Y0.754855
G1 Y0.759218
G1 Y0.763582
G1 Y0.767945
G1 Y0.772308
G1 Y0.776672
G1 Y0.781035
G1 Y0.785398
G1 Y0.789761
G1 Y0.794125
G1 X0.9201 Y1.46608
G1 Y1.47044
G1 Y1.4748
G1 Y1.47917
G1 Y1.48353
G1 Y1.48789
G1 Y1.49226
G1 Y1.49662
G1 Y1.50098
G1 Y1.50535
G1 Y1.50971
G1 Y1.51407
G1 Y1.51844
G1 Y1.5228
G1 Y1.52716
G1 Y1.53153
G1 Y1.53589
G1 Y1.54025
G1 Y1.54462
G1 Y1.54898
G1 Y1.55334
G1 Y1.55771
G1 Y1.56207
G1 Y1.56643
G1 Y1.5708
G1 Y1.57516
G1 Y1.57952
G1 X0.9201 Y3.13287
G1 Y3.13723
G1 Y3.14159
G1 Y3.14596
G1 Y3.15032
G1 Y3.15468
G1 Y3.15905
G1 Y3.16341
G1 Y3.16777
G1 Y3.17214
G1 Y3.1765
G1 Y3.18086
G1 Y3.18523
G1 Y3.18959
G1 Y3.19395
G1 Y3.19832
G1 Y3.20268
G1 Y3.20704
G1 Y3.21141
G1 Y3.21577
G1 Y3.22013
G1 Y3.2245
G1 Y3.22886
G1 Y3.23322
G1 Y3.23759
G1 Y3.24195
G1 Y3.24631
G1 Y3.25068
G1 Y3.25504
G1 Y3.2594
G1 Y3.26377
G1 Y3.26813
G1 Y3.27249
G1 Y3.27686
G1 Y3.28122
G1 Y3.28558
G1 Y3.28995
G1 Y3.29431
G1 Y3.29867
G1 Y3.30304
G1 Y3.3074
G1 Y3.31176
G1 Y3.31613
G1 Y3.32049
G1 Y3.32485
G1 Y3.32922
G1 Y3.33358
G1 Y3.33794
G1 Y3.34231
G1 Y3.34667
G1 Y3.35103
G1 Y3.3554
G1 Y3.35976
G1 Y3.36412
G1 Y3.36849
G1 Y3.37285
G1 Y3.37721
G1 Y3.38158
G1 Y3.38594
G1 Y3.3903
G1 Y3.39467
G1 Y3.39903
G1 Y3.40339
G1 Y3.40776
G1 Y3.41212
G1 Y3.41648
G1 Y3.42085
G1 Y3.42521
G1 Y3.42957
G1 Y3.43394
G1 Y3.4383
G1 Y3.44266
G1 Y3.44703
G1 Y3.45139
G1 Y3.45575
G1 Y3.46012
G1 Y3.46448
G1 Y3.46884
G1 Y3.47321
G1 Y3.47757
G1 Y3.48193
G1 Y3.4863
G1 Y3.49066
G1 Y3.49502
G1 Y3.49939
G1 Y3.50375
G1 Y3.50811
G1 Y3.51248
G1 Y3.51684
G1 Y3.5212
G1 Y3.52557
G1 Y3.52993
G1 Y3.53429
G1 Y3.53866
G1 Y3.54302
G1 Y3.54738
G1 Y3.55175
G1 Y3.55611
G1 Y3.56047
G1 Y3.56483
G1 Y3.5692
G1 Y3.57356
G1 Y3.57792
G1 Y3.58229
G1 Y3.58665
G1 Y3.59101
G1 Y3.59538
G1 Y3.59974
G1 Y3.6041
G1 Y3.60847
G1 Y3.61283
G1 Y3.61719
G1 Y3.62156
G1 Y3.62592
G1 Y3.63028
G1 Y3.63465
G1 Y3.63901
G1 Y3.64337
G1 Y3.64774
G1 Y3.6521
G1 Y3.65646
G1 Y3.66083
G1 Y3.66519
G1 Y3.66955
G1 Y3.67392
G1 Y3.67828
G1 Y3.68264
G1 Y3.68701
G1 Y3.69137
G1 Y3.69573
G1 Y3.7001
G1 Y3.70446
G1 Y3.70882
G1 Y3.71319
G1 Y3.71755
G1 Y3.72191
G1 Y3.72628
G1 Y3.73064
G1 Y3.735
G1 Y3.73937
G1 Y3.74373
G1 Y3.74809
G1 Y3.75246
G1 Y3.75682
G1 Y3.76118
G1 Y3.76555
G1 Y3.76991
G1 Y3.77427
G1 Y3.77864
G1 Y3.783
G1 Y3.78736
G1 Y3.79173
G1 Y3.79609
G1 Y3.80045
G1 Y3.80482
G1 Y3.80918
G1 Y3.81354
G1 Y3.81791
G1 Y3.82227
G1 Y3.82663
G1 Y3.831
G1 Y3.83536
G1 Y3.83972
G1 Y3.84409
G1 Y3.84845
G1 Y3.85281
G1 Y3.85718
G1 Y3.86154
G1 Y3.8659
G1 Y3.87027
G1 Y3.87463
G1 Y3.87899
G1 Y3.88336
G1 Y3.88772
G1 Y3.89208
G1 Y3.89645
G1 Y3.90081
G1 Y3.90517
G1 Y3.90954
G1 Y3.9139
G1 Y3.91826
G1 Y3.92263
G1 Y3.92699
G1 Y3.93135
G1 Y3.93572
G1 X0.9201 Y4.70366
G1 Y4.70803
G1 Y4.71239
G1 Y4.71675
G1 Y4.72112
G1 Y4.72548
G1 Y4.72984
G1 Y4.73421
G1 Y4.73857
G1 Y4.74293
G1 Y4.7473
G1 Y4.75166
G1 Y4.75602
G1 Y4.76039
G1 X0.9101 Y0
G1 Y0.00436332
G1 Y0.00872665
G1 Y0.01309
G1 Y0.0174533
G1 Y0.0218166
G1 Y0.0261799
G1 Y0.0305433
G1 Y0.0349066
G1 Y0.0392699
G1 Y0.0436332
